!!!COM: Beethoven, Ludwig van
!!!CDT: 1770///-1827///
!!!ODT: 1825///-1826///
!!!OTL: String Quartet No. 14 in C-sharp Minor, Op. 131
!!!OPS: Op. 131
!!!OMV: Mvmt. 7
!!!OMD: Allegro
!!!PDT: 1827///
!!!PPP: Mainz
!!!ODE: Dem Baron von Stutterheim gewidmet
!!!MPD: 1825///-1826///
**kern	**dynam	**kern	**dynam	**kern	**dynam	**kern	**dynam
*staff4	*staff4	*staff3	*staff3	*staff2	*staff2	*staff1	*staff1
*Icello	*Icello	*Iviola	*Iviola	*Ivioln	*Ivioln	*Ivioln	*Ivioln
*clefF4	*clefF4	*clefC3	*clefC3	*clefG2	*clefG2	*clefG2	*clefG2
*k[f#c#g#d#]	*k[f#c#g#d#]	*k[f#c#g#d#]	*k[f#c#g#d#]	*k[f#c#g#d#]	*k[f#c#g#d#]	*k[f#c#g#d#]	*k[f#c#g#d#]
*c#:	*c#:	*c#:	*c#:	*c#:	*c#:	*c#:	*c#:
*M2/2	*M2/2	*M2/2	*M2/2	*M2/2	*M2/2	*M2/2	*M2/2
*MM240	*MM240	*MM240	*MM240	*MM240	*MM240	*MM240	*MM240
4CC#'/	ff	4C#'/	ff	4c#'/	ff	4c#'/	ff
4r	.	4r	.	4r	.	4r	.
2r	.	2r	.	2r	.	2r	.
=2	=2	=2	=2	=2	=2	=2	=2
4r	.	4r	.	4r	.	4r	.
(8CC#/L	.	(8C#/L	.	(8c#/L	.	(8c#/L	.
8EE/J	.	8E/J	.	8e/J	.	8e/J	.
4GG#'/)	.	4G#'/)	.	4g#'/)	.	4g#'/)	.
(8AA/L	.	(8A/L	.	(8a/L	.	(8a/L	.
8CC#/J	.	8C#/J	.	8c#/J	.	8c#/J	.
=3	=3	=3	=3	=3	=3	=3	=3
4BBB#/)	.	4BB#/)	.	4B#/)	.	4B#/)	.
4r	.	4r	.	4r	.	4r	.
2r	.	2r	.	2r	.	2r	.
=4	=4	=4	=4	=4	=4	=4	=4
4r	.	4r	.	4r	.	4r	.
(8BBB#/L	.	(8BB#/L	.	(8B#/L	.	(8B#/L	.
8DD#/J	.	8D#/J	.	8d#/J	.	8d#/J	.
4GG#'/)	.	4G#'/)	.	4g#'/)	.	4g#'/)	.
(8AA/L	.	(8A/L	.	(8a/L	.	(8a/L	.
8BBB#/J	.	8BB#/J	.	8B#/J	.	8B#/J	.
=5	=5	=5	=5	=5	=5	=5	=5
4CC#/)	.	4C#/)	.	4c#/)	.	4c#/)	.
8r	.	8r	.	8r	.	4r	.
8C#/	.	8c#\	.	8G#/ 8e/	.	.	.
4C#/	.	4c#\	.	4G#/ 4e/	.	4cc#\	.
8r	.	8r	.	8r	.	8r	.
8C#/	.	8c#\	.	8G#/ 8e/	.	8dd#\	.
=6	=6	=6	=6	=6	=6	=6	=6
4C#/	.	4c#\	.	4G#/ 4e/	.	4ee\	.
8r	.	8r	.	8r	.	8r	.
8C#/	.	8c#\	.	8G#/ 8e/	.	8ff#\	.
4C#/	.	4c#\	.	4G#/ 4e/	.	4gg#\	.
8r	.	8r	.	8r	.	8r	.
8C#/	.	8c#\	.	8G#/ 8e/	.	8aa\	.
=7	=7	=7	=7	=7	=7	=7	=7
4C#/	.	4c#\	.	4G#/ 4e/	.	4gg#\	.
8r	.	8r	.	8r	.	4r	.
8C#/	.	8c#\	.	8G#/ 8e/	.	.	.
4C#/	.	4c#\	.	4G#/ 4e/	.	4gg#\	.
8r	.	8r	.	8r	.	8r	.
8C#/	.	8c#\	.	8G#/ 8e/	.	8ff#\	.
=8	=8	=8	=8	=8	=8	=8	=8
4C#/	.	4c#\	.	4G#/ 4e/	.	4ee\	.
8r	.	8r	.	8r	.	8r	.
8C#/	.	8c#\	.	8G#/ 8e/	.	8dd#\	.
4C#/	.	4c#\	.	4G#/ 4e/	.	4ee\	.
8r	.	8r	.	8r	.	8r	.
8C#/	.	8c#\	.	8G#/ 8e/	.	8cc#\	.
=9	=9	=9	=9	=9	=9	=9	=9
4GG#/	.	4B#/	.	4G#/ 4d#/	.	4dd#\	.
8r	.	8r	.	8r	.	4r	.
8C#/	.	8c#\	.	8G#/ 8e/	.	.	.
4C#/	.	4c#\	.	4G#/ 4e/	.	4cc#\	.
8r	.	8r	.	8r	.	8r	.
8C#/	.	8c#\	.	8G#/ 8e/	.	8dd#\	.
=10	=10	=10	=10	=10	=10	=10	=10
4C#/	.	4c#\	.	4G#/ 4e/	.	4ee\	.
8r	.	8r	.	8r	.	8r	.
8C#/	.	8c#\	.	8G#/ 8e/	.	8ff#\	.
4C#/	.	4c#\	.	4G#/ 4e/	.	4gg#\	.
8r	.	8r	.	8r	.	8r	.
8C#/	.	8c#\	.	8G#/ 8e/	.	8aa#\	.
=11	=11	=11	=11	=11	=11	=11	=11
4D#\	.	4B/	.	4G#/ 4d#/	.	4bb\	.
8r	.	8r	.	8r	.	4r	.
8D#\	.	8B/	.	8G#/ 8d#/	.	.	.
4D#\	.	4B/	.	4G#/ 4d#/	.	4bb\	.
8r	.	8r	.	8r	.	8r	.
8D#\	.	8B/	.	8G#/ 8d#/	.	8gg#\	.
=12	=12	=12	=12	=12	=12	=12	=12
4D#\	.	4F##/	.	4c#/ 4d#/	.	4aa#\	.
8r	.	8r	.	8r	.	8r	.
8D#\	.	8G#/	.	8B/ 8d#/	.	8gg#\	.
4D#\	.	4F##/	.	4c#/ 4d#/	.	4aa#\	.
8r	.	8r	.	8r	.	8r	.
8D#\	.	8A#/	.	8c#/ 8d#/	.	8ff##\	.
=13	=13	=13	=13	=13	=13	=13	=13
4GG#/	.	4G#/	.	4B/ 4d#/	.	4gg#\	.
8r	.	8r	.	8r	.	4r	.
8GG#/	.	8G#/	.	8B#/ 8d#/	.	.	.
4GG#/	.	4G#/	.	4B#/ 4d#/	.	4aan\	.
8r	.	8r	.	8r	.	8r	.
8GG#/	.	8G#/	.	8B#/ 8d#/	.	8gg#\	.
=14	=14	=14	=14	=14	=14	=14	=14
4GG#/	.	4G#/	.	4B#/ 4d#/	.	4ff#\	.
8r	.	8r	.	8r	.	8r	.
8GG#/	.	8G#/	.	8B#/ 8d#/	.	8ee\	.
4GG#/	.	4G#/	.	4B#/ 4d#/	.	4ff#\	.
8r	.	8r	.	8r	.	8r	.
8GG#/	.	8G#/	.	8B#/ 8d#/	.	8dd#\	.
=15	=15	=15	=15	=15	=15	=15	=15
4GG#/	.	4c#\	.	4G#/ 4e/	.	4ee\	.
8r	.	8r	.	8r	.	4r	.
8GG#/	.	8c#\	.	8G#/ 8e/	.	.	.
4GG#/	.	4c#\	.	4G#/ 4e/	.	4ff#\	.
8r	.	8r	.	8r	.	8r	.
8GG#/	.	8c#\	.	8G#/ 8e/	.	8ee\	.
=16	=16	=16	=16	=16	=16	=16	=16
4GG#/	.	4d#\	.	4G#/ 4f#/	.	4dd#\	.
8r	.	8r	.	8r	.	8r	.
8GG#/	.	8d#\	.	8G#/ 8f#/	.	8cc#\	.
4GG#/	.	4d#\	.	4G#/ 4f#/	.	4dd#\	.
8r	.	8r	.	8r	.	8r	.
8GG#/	.	8d#\	.	8G#/ 8f#/	.	8b#\	.
=17	=17	=17	=17	=17	=17	=17	=17
4C#/	.	4c#\	.	4G#/ 4e/	.	4cc#\	.
8r	.	8r	.	8r	.	4r	.
8C#/	.	8c#\	.	8G#/ 8e/	.	.	.
4F#\	p	4A/	p	4dn/	p	(4.aa\	p
8r	.	8r	.	8r	.	.	.
8F#\	.	8A/	.	8d/	.	8ggn\	.
=18	=18	=18	=18	=18	=18	=18	=18
2r	.	2r	.	2r	.	4.ff#\	.
.	.	.	.	.	.	8ee\	.
4F#\	.	4A/	.	4dn/	.	4ff#\	.
8r	.	8r	.	8r	.	4ddn\)	.
8F#\	.	8A/	.	8d/	.	.	.
=19	=19	=19	=19	=19	=19	=19	=19
2r	.	2r	.	2r	.	(2ee\	.
4G#\	.	4c#\	.	4e/	.	4.ff#\	.
8r	.	8r	.	8r	.	.	.
8G#\	.	8c#\	.	8e/	.	8ee\	.
=20	=20	=20	=20	=20	=20	=20	=20
2r	.	1r	.	2r	.	4.ddn\	.
.	.	.	.	.	.	8cc#\	.
4G#\	.	.	.	4e/	.	4.dd\	.
8r	.	.	.	8r	.	.	.
8G#\	.	.	.	8e/	.	8b#\)	.
=21	=21	=21	=21	=21	=21	=21	=21
4G#\	.	4c#\	p	2.e/	.	2.cc#\	.
2r	.	8r	.	.	.	.	.
.	.	8G#/	.	.	.	.	.
.	.	4G#/	.	.	.	.	.
(4C#/	.	8r	.	(4e/	.	(4ccc#\	.
.	.	8G#/	.	.	.	.	.
=22	=22	=22	=22	=22	=22	=22	=22
2D#\	.	4G#/	.	2f#/	.	2bb#\	.
.	.	8r	.	.	.	.	.
.	.	8G#/	.	.	.	.	.
2F#\	.	4G#/	.	4a/)	.	2aa\	.
.	.	8r	.	(4f#/	.	.	.
.	.	8G#/	.	.	.	.	.
=23	=23	=23	=23	=23	=23	=23	=23
2.E\)	.	4G#/	.	2b#\	.	2.gg#\)	.
.	.	8r	.	.	.	.	.
.	.	8G#/	.	.	.	.	.
.	.	4G#/	.	4cc#\)	.	.	.
(4C#/	.	8r	.	(4e/	.	(4ccc#\	.
.	.	8G#/	.	.	.	.	.
=24	=24	=24	=24	=24	=24	=24	=24
4D#\	p	4G#/	.	4f#/	p	4bb#\	p
4C#/	.	8r	.	4e/	.	4ccc#\	.
.	.	8G#/	.	.	.	.	.
4BB#/	.	4G#/	.	4d#/	.	4ddd#\	.
4C#/	.	8r	.	4c#/	.	4eee\	.
.	.	8G#/	.	.	.	.	.
=25	=25	=25	=25	=25	=25	=25	=25
4GG#/)	.	4G#/	.	4B#/)	.	4ddd#\)	.
2r	.	8r	.	2r	.	2r	.
.	.	8G#/	.	.	.	.	.
.	.	4G#/	.	.	.	.	.
(4C#/	.	8r	.	(4e/	.	(4ccc#\	.
.	.	8G#/	.	.	.	.	.
=26	=26	=26	=26	=26	=26	=26	=26
2D#\	.	4G#/	.	2f#/	.	2bb#\	.
.	.	8r	.	.	.	.	.
.	.	8G#/	.	.	.	.	.
2F#\	.	4G#/	.	4a/)	.	2aa\	.
.	.	8r	.	(4f#/	.	.	.
.	.	8G#/	.	.	.	.	.
=27	=27	=27	=27	=27	=27	=27	=27
2.E\)	.	4G#/	.	2b#\	.	2.gg#\)	.
.	.	8r	.	.	.	.	.
.	.	8G#/	.	.	.	.	.
.	.	4G#/	.	4cc#\)	.	.	.
(4C#/	.	8r	.	(4cc#\	p	(4ccc#\	.
.	.	8E/	.	.	.	.	.
=28	=28	=28	=28	=28	=28	=28	=28
4GG#/	p	4G#/	.	4ee\	.	4eee\	.
4BB#/	.	8r	.	4dd#\	.	4ddd#\	.
.	.	8F#/	.	.	.	.	.
4C#/	.	4E/	.	4cc#\	.	4ccc#\	.
4D#\	.	8r	.	4b#\	.	4bb#\	.
.	.	8F#/	.	.	.	.	.
=29	=29	=29	=29	=29	=29	=29	=29
4C#/)	.	4E/	.	4cc#\)	.	4ccc#\)	.
2r	.	8r	.	4r	.	4r	.
.	.	8C#/	.	.	.	.	.
.	.	4C#/	.	2r	.	2r	.
(4CC#/ 4C#/	.	(4C#/ 4c#/	.	.	.	.	.
=30	=30	=30	=30	=30	=30	=30	=30
*^	*	*^	*	*	*	*	*
2BB#/	1BBB#	.	2B#/	1BB#	.	2r	.	2r	.
2AA/	.	.	2A/	.	.	4r	.	4r	.
.	.	.	.	.	.	(4f#/	.	(4f#/	.
*v	*v	*	*	*	*	*	*	*	*
*	*	*v	*v	*	*	*	*	*
=31	=31	=31	=31	=31	=31	=31	=31
&(4BBB#/&)) 4GG#/	.	&(4BB#/&)) 4G#/	.	2B#/	.	2b#\	.
2r	.	2r	.	.	.	.	.
.	.	.	.	2c#/)	.	2cc#\)	.
(4CC#/	.	(4C#/	.	.	.	.	.
=32	=32	=32	=32	=32	=32	=32	=32
4BBB#/	p	4BB#/	p	1r	.	1r	.
4CC#/	.	4C#/	.	.	.	.	.
4DD#/	.	4D#/	.	.	.	.	.
4EE/	.	4E/	.	.	.	.	.
=33	=33	=33	=33	=33	=33	=33	=33
4DD#/)	.	4D#/)	.	1r	.	1r	.
2r	.	2r	.	.	.	.	.
(4CC#/ 4C#/	.	(4C#/ 4c#/	.	.	.	.	.
=34	=34	=34	=34	=34	=34	=34	=34
*^	*	*^	*	*	*	*	*
2BB#/	1BBB#	.	2B#/	1BB#	.	2r	.	2r	.
2AA/	.	.	2A/	.	.	4r	.	4r	.
.	.	.	.	.	.	(4f#/	.	(4ff#\	.
*v	*v	*	*	*	*	*	*	*	*
*	*	*v	*v	*	*	*	*	*
=35	=35	=35	=35	=35	=35	=35	=35
&(4BBB#/&)) 4GG#/	.	&(4BB#/&)) 4G#/	.	2b#\	.	2bb#\	.
2r	.	2r	.	.	.	.	.
.	.	.	.	2cc#\)	.	2ccc#\)	.
(4CC#/	p	(4C#/	.	.	.	.	.
=36	=36	=36	=36	=36	=36	=36	=36
4EE/	.	4E/	p	2r	.	1r	.
4DD#/	.	4D#/	.	.	.	.	.
4CC#/	.	4C#/	.	4r	.	.	.
4BBB#/)	.	4BB#/)	.	(4G#/	p	.	.
=37	=37	=37	=37	=37	=37	=37	=37
(4GG#/	.	(4G#/	.	4e/	.	2r	.
4FF#/	.	4F#/	.	4d#/	.	.	.
4EE/	.	4E/	.	4c#/	.	4r	.
4DD#/)	.	4D#/)	.	4B#/)	.	(4b#\	p
=38	=38	=38	=38	=38	=38	=38	=38
(4EE/	.	(4E/	.	(4c#/	.	4gg#\	.
4DD#/	.	4BB#/	.	4d#/	.	4ff#\	.
4CC#/	.	4C#/	.	4e/	.	4ee\	.
4BBB#/	.	4G#/)	.	4f#/	.	4dd#\	.
=39	=39	=39	=39	=39	=39	=39	=39
4CC#/	.	(4G#/	.	4e/	.	4ee\	.
4FF#/	.	4A/	.	4f#/	.	4dd#\	.
4GG#/)	.	4G#/	.	4e/	.	4cc#\	.
4g#\	.	4f#\)	.	4d#/)	.	4b#\)	.
=40	=40	=40	=40	=40	=40	=40	=40
4g#\	f	4e\	f	4c#/	.	4cc#\	.
8r	.	8r	.	8r	f	4r	f
8g#\	.	8cc#\	.	8ee\	.	.	.
4g#\	.	4cc#\	.	4ee\	.	2r	.
8r	.	8r	.	8r	.	.	.
8g#\	.	8cc#\	.	8ee\	.	.	.
=41	=41	=41	=41	=41	=41	=41	=41
4g#\	.	4cc#\	.	4ee\	.	4r	.
8r	.	8r	.	8r	.	(8c#/L	.
8g#\	.	8cc#\	.	8ee\	.	8e/J	.
4g#\	.	4cc#\	.	4ee\	.	4g#'/)	.
8r	.	8r	.	8r	.	(8a/L	.
8g#\	.	8cc#\	.	8ee\	.	8c#/J	.
=42	=42	=42	=42	=42	=42	=42	=42
4g#\	.	4dd#\	.	4ff#\	.	4B#'/)	.
8r	.	8r	.	8r	.	4r	.
8g#\	.	8dd#\	.	8ff#\	.	.	.
4g#\	.	4dd#\	.	4ff#\	.	2r	.
8r	.	8r	.	8r	.	.	.
8g#\	.	8dd#\	.	8ff#\	.	.	.
=43	=43	=43	=43	=43	=43	=43	=43
4g#\	.	4dd#\	.	4ff#\	.	4r	.
8r	.	8r	.	8r	.	(8B#/L	.
8g#\	.	8dd#\	.	8ff#\	.	8d#/J	.
4g#\	.	4dd#\	.	4ff#\	.	4g#'/)	.
8r	.	8r	.	8r	.	(8a/L	.
8g#\	.	8dd#\	.	8ff#\	.	8B#/J	.
=44	=44	=44	=44	=44	=44	=44	=44
4g#\	.	4cc#\	.	4ee\	.	4c#'/)	.
8r	.	8r	.	8r	.	4r	.
8c#\	.	8e\	.	8g#/	.	.	.
4c#\	.	4e\	.	4g#/	.	4cc#\	.
8r	.	8r	.	8r	.	8r	.
8c#\	.	8e\	.	8g#/	.	8dd#\	.
=45	=45	=45	=45	=45	=45	=45	=45
4c#\	.	4e\	.	4g#/	.	4ee\	.
8r	.	8r	.	8r	.	8r	.
8c#\	.	8e\	.	8g#/	.	8ff#\	.
4c#\	.	4e\	.	4g#/	.	4gg#\	.
8r	.	8r	.	8r	.	8r	.
8c#\	.	8e\	.	8g#/	.	8aa#\	.
=46	=46	=46	=46	=46	=46	=46	=46
4d#\	.	4b\	.	4g#/	.	(2bb\	.
8r	.	8r	.	8r	.	.	.
8d#\	.	8g#\	.	8b\	.	.	.
4d#\	p	4g#\	p	4b\	p	4ccc#\)	p
8r	.	8r	.	8r	.	8r	.
8d#\	.	8g#\	.	8b\	.	8bb\	.
=47	=47	=47	=47	=47	=47	=47	=47
.	.	.	.	.	.	bbq/	.
4d#\	.	4f##\	.	4cc#\	.	4aa#\	.
8r	.	8r	.	8r	.	8r	.
8d#\	.	8g#\	.	8b\	.	8gg#\	.
4d#\	.	4f##\	.	4cc#\	.	4aa#\	.
8r	.	8r	.	8r	.	8r	.
8d#\	.	8a#\	.	8cc#\	.	8ff##\	.
=48	=48	=48	=48	=48	=48	=48	=48
4G#\	.	4g#\	.	4b\	.	(2gg#\	.
8r	.	8r	.	8r	.	.	.
8G#\	.	8d#\	.	8b\	.	.	.
4G#\	.	4d#\	.	4b#\	.	4aan\)	.
8r	p	8r	p	8r	p	8r	p
8G#\	.	8d#\	.	8b#\	.	8gg#\	.
=49	=49	=49	=49	=49	=49	=49	=49
.	.	.	.	.	.	gg#q/	.
4G#\	.	4d#\	.	4b#\	.	4ff#\	.
8r	.	8r	.	8r	.	8r	.
8G#\	.	8c#\	.	8cc#\	.	8ee\	.
4G#\	.	4B#/	.	4g#/	.	4ff#\	.
8r	.	8r	.	8r	.	8r	.
8G#\	.	8B#/	.	8g#/	.	8dd#\	.
=50	=50	=50	=50	=50	=50	=50	=50
4G#\	.	4c#\	.	4g#/	.	(2ee\	.
8r	.	8r	.	8r	.	.	.
8G#\	.	8c#\	.	8g#/	.	.	.
4G#\	.	4c#\	.	4e/	.	4ff#\)	.
8r	p	8r	p	8r	p	8r	p
8G#\	.	8c#\	.	8e/	.	8ee\	.
=51	=51	=51	=51	=51	=51	=51	=51
.	.	.	.	.	.	eeq/	.
4G#\	.	4d#\	.	4f#/	.	4dd#\	.
8r	.	8r	.	8r	.	8r	.
8G#\	.	8d#\	.	8f#/	.	8cc#\	.
4G#\	.	4d#\	.	4f#/	.	4dd#\	.
8r	.	8r	.	8r	.	8r	.
8G#\	.	8d#\	.	8f#/	.	8b#\	.
=52	=52	=52	=52	=52	=52	=52	=52
(2G#\	.	4c#\	.	4e/	.	4cc#\	.
.	.	4r	.	4r	.	4r	.
4A\)	ff	2r	.	2r	.	2r	.
8r	.	.	.	.	.	.	.
8G#\	.	.	.	.	.	.	.
=53	=53	=53	=53	=53	=53	=53	=53
*	*	*^	*	*	*	*	*
4F#\	.	(2g#/	2.c#\	ff	1r	.	1r	.
8r	.	.	.	.	.	.	.	.
8E\	.	.	.	.	.	.	.	.
4F#\	.	4a/)	.	.	.	.	.	.
8r	.	8r	4r	.	.	.	.	.
8E\	.	8g#/	.	.	.	.	.	.
*	*	*v	*v	*	*	*	*	*
=54	=54	=54	=54	=54	=54	=54	=54
4D#\	.	4f#\	.	(2b\	ff	1r	.
8r	.	8r	.	.	.	.	.
8C#/	.	8E/	.	.	.	.	.
4BB/	.	4D#/	.	4cc#\)	.	.	.
8r	.	8r	.	4b\	.	.	.
8C#/	.	8E/	.	.	.	.	.
=55	=55	=55	=55	=55	=55	=55	=55
4BB/	.	4D#/	.	4b\	.	(2ff#\	.
8r	.	8r	.	8r	.	.	.
8AA/	.	8B/	.	8d#/	.	.	.
4GG#/	.	4B/	.	4e/	.	4gg#\)	ff
8r	.	8r	.	8r	.	8r	.
8FF#/	.	8B/	.	8f#/	.	8aa\	.
=56	=56	=56	=56	=56	=56	=56	=56
[1EE [1BB	p	[1B	.	(2g#/	p	[2gg#\	.
.	.	.	.	[2G#/)	.	(8gg#\L]	p
.	.	.	.	.	.	8ff#\	.
.	.	.	.	.	.	8ee\	.
.	.	.	.	.	.	8dd#\J	.
=57	=57	=57	=57	=57	=57	=57	=57
1EE] 1BB]	.	1B]	p	1G#]	.	8ee\L	.
.	.	.	.	.	.	8dd#\	.
.	.	.	.	.	.	8cc#\	.
.	.	.	.	.	.	8b\J	.
.	.	.	.	.	.	8a/L	.
.	.	.	.	.	.	8g#/	.
.	.	.	.	.	.	8f#/	.
.	.	.	.	.	.	8e/J)	.
=58	=58	=58	=58	=58	=58	=58	=58
[1FF# [1BB	.	[1B	.	[1A	.	(4.e/	.
.	.	.	.	.	.	8d#/)	.
.	.	.	.	.	.	2bb\	.
=59	=59	=59	=59	=59	=59	=59	=59
1FF#] 1BB]	.	1B]	.	1A]	.	2bb\	.
.	.	.	.	.	.	2bb\	.
=60	=60	=60	=60	=60	=60	=60	=60
1EE 1BB	p	(2g#\	p	(1G#	p	(2bb\	.
.	.	(8g#\L)	.	.	.	2eee\	p
.	.	8f#\	.	.	.	.	.
.	.	8e\	.	.	.	.	.
.	.	8d#\J	.	.	.	.	.
=61	=61	=61	=61	=61	=61	=61	=61
1EE 1BB	.	8e\L	.	1G#)	.	2ggg#\	.
.	.	8d#\	.	.	.	.	.
.	.	8c#\	.	.	.	.	.
.	.	8B\J	.	.	.	.	.
.	.	8A/L	.	.	.	2bbb\)	.
.	.	8G#/	.	.	.	.	.
.	.	8F#/	.	.	.	.	.
.	.	8E/J)	.	.	.	.	.
=62	=62	=62	=62	=62	=62	=62	=62
[1FF# [1BB	.	(4.E/	.	(1A	.	(2bb\	.
.	.	8D#/)	.	.	.	.	.
.	.	2b\	.	.	.	2ddd#\	.
=63	=63	=63	=63	=63	=63	=63	=63
1FF#] 1BB]	.	2b\	.	1A)	.	2fff#\	.
.	.	2b\	.	.	.	2bbb\)	.
=64	=64	=64	=64	=64	=64	=64	=64
[1EE [1BB	p	(2b\	p	[2gg#\	p	(2bb\	p
.	.	2g#\	.	(8gg#\L]	.	2eee\	.
.	.	.	.	8ff#\	.	.	.
.	.	.	.	8ee\	.	.	.
.	.	.	.	8dd#\J	.	.	.
=65	=65	=65	=65	=65	=65	=65	=65
1EE] 1BB]	.	2e\	.	8ee\L	.	2ggg#\	.
.	.	.	.	8dd#\	.	.	.
.	.	.	.	8cc#\	.	.	.
.	.	.	.	8b\J	.	.	.
.	.	2B/)	.	8a/L	.	2bbb\)	.
.	.	.	.	8g#/	.	.	.
.	.	.	.	8f#/	.	.	.
.	.	.	.	8e/J)	.	.	.
=66	=66	=66	=66	=66	=66	=66	=66
[1FF# [1BB	.	(2b\	.	(4.e/	.	[2aa\	.
.	.	.	.	8d#/)	.	.	.
.	.	2f#\	.	2bb\	.	8aa\L]	.
.	.	.	.	.	.	8gg#\	.
.	.	.	.	.	.	8ff#\	.
.	.	.	.	.	.	8ee\J	.
=67	=67	=67	=67	=67	=67	=67	=67
1FF#] 1BB]	.	2d#\	.	2bb\	.	8dd#\L	.
.	.	.	.	.	.	8cc#\	.
.	.	.	.	.	.	8b\	.
.	.	.	.	.	.	8a\J	.
.	.	2B/)	.	2bb\	.	8b/L	.
.	.	.	.	.	.	8a/	.
.	.	.	.	.	.	8g#/	.
.	.	.	.	.	.	8f#/J	.
=68	=68	=68	=68	=68	=68	=68	=68
(2GG#/ 2BB/	.	(2B/	.	(2bb\	.	4.f#/	.
.	.	.	.	.	.	8e/	.
&(2GG#/&)) 2BB/	.	2B/)	.	2bb\)	.	2dddn\	.
=69	=69	=69	=69	=69	=69	=69	=69
1G#	.	1B	.	1e#	.	2dddn\	.
.	.	.	.	.	.	2ddd\	.
=70	=70	=70	=70	=70	=70	=70	=70
1c#	.	1e	.	1gn	.	(4.b\	.
.	.	.	.	.	.	8a#/)	.
.	.	.	.	.	.	2eee\	.
=71	=71	=71	=71	=71	=71	=71	=71
1gn	.	1c#	.	1a#	.	2eee\	.
.	.	.	.	.	.	2eee\	.
=72	=72	=72	=72	=72	=72	=72	=72
(2cn\	.	(2d#\	.	(2an/	.	(2fff#\	p
[2B\)	p	[2e\)	p	[2g#/)	p	4ggg#\	.
.	.	.	.	.	.	4aaa\	.
=73	=73	=73	=73	=73	=73	=73	=73
1B]	.	2e\]	.	(2g#/]	.	2bbb\)	.
.	.	2f#\	.	4a/	.	(2dd#\	.
.	.	.	.	4b\)	.	.	.
=74	=74	=74	=74	=74	=74	=74	=74
[1e	.	2g#\	.	(2b\	.	2ddn\	.
.	.	2e\	.	(2a/)	.	2cc#\	.
=75	=75	=75	=75	=75	=75	=75	=75
1e_	.	2f#\	.	(2a/)	.	2dd#\	.
.	.	[2g#\	.	(2b\)	.	2ee\	.
=76	=76	=76	=76	=76	=76	=76	=76
(2e\]	.	1g#]	.	[1b)	.	2ddn\)	.
(2e#\)	.	.	.	.	.	[2cc#\	.
=77	=77	=77	=77	=77	=77	=77	=77
2.e#\)	.	1g# 1b	.	4b\]	.	1cc#_	.
.	.	.	.	(8c#/L	.	.	.
.	.	.	.	8e#/J	.	.	.
.	.	.	.	4g#'/)	.	.	.
(8C#\L	.	.	.	(8e#/L	.	.	.
8E#\J	.	.	.	8g#/J	.	.	.
=78	=78	=78	=78	=78	=78	=78	=78
4F#'\)	ff	4c#'\	ff	4a'/)	.	4cc#\]	ff
(8FF#/L	.	(8F#/L	.	(8f#/L	ff	(8f#/L	.
8AA/J	.	8A/J	.	8a/J	.	8a/J	.
4C#'/)	.	4c#'\)	.	4cc#'\)	.	4cc#'\)	.
(8Dn/L	.	(8dn/L	.	(8ddn/L	.	(8ddn/L	.
8FF#/J	.	8F#/J	.	8f#/J	.	8f#/J	.
=79	=79	=79	=79	=79	=79	=79	=79
4EE#'/)	.	4E#'/)	.	4e#'/)	.	4e#'/)	.
4r	.	4r	.	4r	.	4r	.
2r	.	2r	.	2r	.	2r	.
=80	=80	=80	=80	=80	=80	=80	=80
4r	.	4r	.	4r	.	4r	.
(8EE#/L	.	(8E#/L	.	(8e#/L	.	(8e#/L	.
8GG#/J	.	8G#/J	.	8g#/J	.	8g#/J	.
4C#'/)	.	4c#'\)	.	4cc#'\)	.	4cc#'\)	.
(8Dn/L	.	(8dn/L	.	(8ddn/L	.	(8ddn/L	.
8EE#/J	.	8E#/J	.	8e#/J	.	8e#/J	.
=81	=81	=81	=81	=81	=81	=81	=81
4FF#/)	.	4F#/)	.	4f#/)	.	4f#/)	.
8r	.	8r	.	8r	.	4r	.
8F#\	.	8f#\	.	8a\ 8cc#\	.	.	.
4F#\	.	4f#\	.	4a\ 4cc#\	.	4ff#\	.
8r	.	8r	.	8r	.	8r	.
8F#\	.	8f#\	.	8a\ 8cc#\	.	8gg#\	.
=82	=82	=82	=82	=82	=82	=82	=82
4F#\	.	4f#\	.	4a\ 4cc#\	.	4aa\	.
8r	.	8r	.	8r	.	8r	.
8F#\	.	8f#\	.	8a\ 8cc#\	.	8bb\	.
4F#\	.	4f#\	.	4a\ 4cc#\	.	4ccc#\	.
8r	.	8r	.	8r	.	8r	.
8F#\	.	8f#\	.	8a\ 8cc#\	.	8dddn\	.
=83	=83	=83	=83	=83	=83	=83	=83
4F#\	.	4f#\	.	4a\ 4cc#\	.	4ccc#\	.
8r	.	8r	.	8r	.	4r	.
8F#\	.	8f#\	.	8a\ 8cc#\	.	.	.
4F#\	.	4f#\	.	4a\ 4cc#\	.	4ccc#\	.
8r	.	8r	.	8r	.	8r	.
8F#\	.	8f#\	.	8a\ 8cc#\	.	8bb\	.
=84	=84	=84	=84	=84	=84	=84	=84
.	.	.	.	.	.	aaq/LL	.
.	.	.	.	.	.	bbq/JJ	.
4F#\	.	4f#\	.	4a\ 4cc#\	.	4aa\	.
8r	.	8r	.	8r	.	8r	.
8F#\	.	8f#\	.	8a\ 8cc#\	.	8gg#\	.
4F#\	.	4f#\	.	4a\ 4cc#\	.	4aa\	.
8r	.	8r	.	8r	.	8r	.
8F#\	.	8f#\	.	8a\ 8cc#\	.	8ff#\	.
=85	=85	=85	=85	=85	=85	=85	=85
4C#/	.	4e#\	.	4g#/ 4cc#/	.	4gg#\	.
8r	.	8r	.	8r	.	4r	.
8F#\	.	8f#\	.	8a\ 8cc#\	.	.	.
4F#\	.	4f#\	.	4a\ 4cc#\	.	4ff#\	.
8r	.	8r	.	8r	.	8r	.
8F#\	.	8f#\	.	8a\ 8cc#\	.	8gg#\	.
=86	=86	=86	=86	=86	=86	=86	=86
4F#\	.	4f#\	.	4a\ 4cc#\	.	4aa\	.
8r	.	8r	.	8r	.	8r	.
8F#\	.	8f#\	.	8a\ 8cc#\	.	8bb\	.
4F#\	.	4f#\	.	4a\ 4cc#\	.	4ccc#\	.
8r	.	8r	.	8r	.	8r	.
8F#\	.	8f#\	.	8a\ 8cc#\	.	8ddd#\	.
=87	=87	=87	=87	=87	=87	=87	=87
4G#\	.	4e\	.	4g#/ 4cc#/	.	4eee\	.
8r	.	8r	.	8r	.	4r	.
8G#\	.	8e\	.	8g#/ 8cc#/	.	.	.
4g#\	.	4e\	.	4g#/ 4cc#/	.	4eee\	.
8r	.	8r	.	8r	.	8r	.
8g#\	.	8e\	.	8g#/ 8cc#/	.	8ccc#\	.
=88	=88	=88	=88	=88	=88	=88	=88
.	.	.	.	.	.	ddd#q/LL	.
.	.	.	.	.	.	eeeq/JJ	.
4g#\	.	4f#\	.	4g#/ 4b#/	.	4ddd#\	.
8r	.	8r	.	8r	.	8r	.
8g#\	.	8e\	.	8g#/ 8cc#/	.	8ccc#\	.
4g#\	.	4f#\	.	4g#/ 4b#/	.	4ddd#\	.
8r	.	8r	.	8r	.	8r	.
8g#\	.	8f#\	.	8g#/ 8b#/	.	8bb#\	.
=89	=89	=89	=89	=89	=89	=89	=89
4c#\	.	4e\	.	4g#/ 4cc#/	.	4ccc#\	.
8r	.	8r	.	8r	.	4r	.
8c#\	.	8fn\	.	8g#/ 8cc#/	.	.	.
4c#\	.	4f\	.	4g#/ 4cc#/	.	4dddn\	.
8r	.	8r	.	8r	.	8r	.
8c#\	.	8f\	.	8g#/ 8cc#/	.	8ccc#\	.
=90	=90	=90	=90	=90	=90	=90	=90
.	.	.	.	.	.	bbq/LL	.
.	.	.	.	.	.	ccc#q/JJ	.
4c#\	.	4fn\	.	4g#/ 4cc#/	.	4bb\	.
8r	.	8r	.	8r	.	8r	.
8c#\	.	8f#\	.	8cc#\	.	8aa\	.
4c#\	.	4g#\	.	4cc#\	.	4bb\	.
8r	.	8r	.	8r	.	8r	.
8c#\	.	8fn\	.	8cc#\	.	8gg#\	.
=91	=91	=91	=91	=91	=91	=91	=91
4c#\	.	4f#\	.	4cc#\	.	4aa\	.
8r	.	8r	.	8r	.	4r	.
8C#/	.	8c#\ 8f#\	.	8cc#\	.	.	.
4C#/	.	4c#\ 4g#\	.	4cc#\	.	4bb\	.
8r	.	8r	.	8r	.	8r	.
8C#/	.	8c#\ 8f#\	.	8cc#\	.	8aa\	.
=92	=92	=92	=92	=92	=92	=92	=92
.	.	.	.	.	.	gg#q/LL	.
.	.	.	.	.	.	aaq/JJ	.
4C#/	.	4B/	.	4cc#\	.	4gg#\	.
8r	.	8r	.	8r	.	8r	.
8C#/	.	8A/	.	8cc#\	.	8ff#\	.
4C#/	.	4B/	.	4cc#\	.	4gg#\	.
8r	.	8r	.	8r	.	8r	.
8C#/	.	8G#/	.	8cc#\	.	8ee#\	.
=93	=93	=93	=93	=93	=93	=93	=93
4FF#/	.	4F#/ 4A/	.	4f#/ 4cc#/	.	4ff#\	.
4r	.	4r	.	4r	.	4r	.
2r	.	2r	.	4ddn\	.	2r	.
.	.	.	.	8r	.	.	.
.	.	.	.	8cc#\	f	.	.
=94	=94	=94	=94	=94	=94	=94	=94
1r	.	1r	.	4b\	.	1ee#	.
.	.	.	.	8r	.	.	.
.	.	.	.	8a/	.	.	.
.	.	.	.	4b\	.	.	.
.	.	.	.	8r	.	.	.
.	.	.	.	8g#/	.	.	.
=95	=95	=95	=95	=95	=95	=95	=95
1r	.	2r	.	4a/	.	1ff#	f
.	.	.	.	4r	.	.	.
.	.	4ddn\	.	4b\	.	.	.
.	.	8r	.	8r	.	.	.
.	.	8cc#\	f	8a/	.	.	.
=96	=96	=96	=96	=96	=96	=96	=96
1r	.	4b\	.	4g#/	.	1gg#	.
.	.	8r	.	8r	.	.	.
.	.	8a\	.	8f#/	.	.	.
.	.	4b\	.	4g#/	.	.	.
.	.	8r	.	8r	.	.	.
.	.	8g#\	.	8e#/	.	.	.
=97	=97	=97	=97	=97	=97	=97	=97
1r	.	4c#\	.	4f#/	.	4aa\	f
.	.	4r	.	8r	.	4r	.
.	.	.	.	8f#/	.	.	.
.	.	2r	.	4een\	.	4ggn\	.
.	.	.	.	8r	.	8r	.
.	.	.	.	8ddn\	.	8ff#\	.
=98	=98	=98	=98	=98	=98	=98	=98
2r	.	1A#	.	4cc#\	.	4ee\	.
.	.	.	.	8r	.	8r	.
.	.	.	.	8f#/	.	8ddn\	.
4r	.	.	.	4f#/	.	4ee\	.
8r	.	.	.	4r	.	8r	.
8F#\	f	.	.	.	.	8cc#\	.
=99	=99	=99	=99	=99	=99	=99	=99
*k[f#c#]	*k[f#c#]	*k[f#c#]	*k[f#c#]	*k[f#c#]	*k[f#c#]	*k[f#c#]	*k[f#c#]
4F#\	.	1B	.	4r	.	4ddn\	.
4r	.	.	.	8r	.	4r	.
.	.	.	.	8f#/	.	.	.
4r	.	.	.	4f#/	.	4ee\	.
8r	.	.	.	4r	.	8r	.
8F#\	.	.	.	.	.	8ddn\	.
=100	=100	=100	=100	=100	=100	=100	=100
4A#\	.	1c#	f	4r	.	4cc#\	.
4r	.	.	.	8r	.	8r	.
.	.	.	.	8f#/	.	8b\	.
4r	.	.	.	4f#/	.	4cc#\	.
8r	.	.	.	4r	.	8r	.
8F#\	.	.	.	.	.	8a#/	.
=101	=101	=101	=101	=101	=101	=101	=101
4B\	.	4d\	f	4r	.	4b\	.
4r	.	4r	.	8r	.	8r	.
.	.	.	.	8dd\	.	8bb\	.
4r	.	4d\	.	4dd\	.	4bb\	.
8r	.	8r	.	4r	.	4r	.
8BB/	.	8c#\	.	.	.	.	.
=102	=102	=102	=102	=102	=102	=102	=102
4C#/	.	4B/	.	1e#	.	4r	.
4r	.	8r	.	.	.	8r	.
.	.	8A/	.	.	.	8ddd\	.
4r	.	4B/	.	.	.	4ddd\	.
8r	.	8r	.	.	.	4r	.
8C#/	.	8G#/	.	.	.	.	.
=103	=103	=103	=103	=103	=103	=103	=103
4C#/	.	4A/	.	1f#	f	4r	.
4r	.	4r	.	.	.	8r	.
.	.	.	.	.	.	8ccc#\	.
4r	.	4B/	.	.	.	4ccc#\	.
8r	.	8r	.	.	.	4r	.
8C#/	.	8A/	.	.	.	.	.
=104	=104	=104	=104	=104	=104	=104	=104
4E#\	.	4G#/	.	1g#	f	4r	.
4r	.	8r	.	.	.	8r	.
.	.	8F#/	.	.	.	8ccc#\	.
4r	.	4G#/	.	.	.	4ccc#\	.
8r	.	8r	.	.	.	4r	.
8C#/	.	8E#/	.	.	.	.	.
=105	=105	=105	=105	=105	=105	=105	=105
4FF#/	.	4c#\	.	1a	f	4r	.
4r	.	4r	.	.	.	8r	.
.	.	.	.	.	.	8ccc#\	.
4g\	.	2r	.	.	.	4ff#\	.
8r	.	.	.	.	.	4r	.
8f#\	.	.	.	.	.	.	.
=106	=106	=106	=106	=106	=106	=106	=106
4e\	.	4g\	.	1a#	.	4r	.
8r	.	8r	.	.	.	8r	.
8d\	.	8f#\	.	.	.	8ff#\	.
4e\	.	4g\	.	.	.	4ff#\	.
8r	.	8r	.	.	.	4r	.
8c#\	.	8e\	.	.	.	.	.
=107	=107	=107	=107	=107	=107	=107	=107
4d\	.	4f#\	.	1b	f	4r	.
4r	.	4r	.	.	.	8r	.
.	.	.	.	.	.	8ff#\	.
4G\	.	4e\	.	.	.	4ff#\	.
8r	.	8r	.	.	.	4r	.
8F#\	.	8d\	.	.	.	.	.
=108	=108	=108	=108	=108	=108	=108	=108
4E\	.	4c#\	.	1f# 1cc#	.	4r	.
8r	.	8r	.	.	.	8r	.
8D\	.	8B/	.	.	.	8ff#\	.
4E\	.	4c#\	.	.	.	4ff#\	.
8r	.	8r	.	.	.	4r	.
8C#/	.	8A#/	.	.	.	.	.
=109	=109	=109	=109	=109	=109	=109	=109
4BB/	.	4B/	.	2f#/ 2dd/	f	4ff#\	.
4r	.	8r	.	.	.	8r	.
.	.	8B/	.	.	.	8bb\	.
2r	.	4B/	.	4.f#/ 4.dd#/	.	4cccn\	.
.	.	4r	.	.	.	8r	.
.	.	.	.	8b\	.	8bb\	.
=110	=110	=110	=110	=110	=110	=110	=110
1DD#	.	4r	.	[2.B/ [2.f#/	.	4aa\	.
.	.	8r	.	.	.	8r	.
.	.	8b\	.	.	.	8gg\	.
.	.	4b\	.	.	.	4aa\	.
.	.	4r	.	8B/L] 8f#/]	.	8r	.
.	.	.	.	8ff#/J	.	8ff#\	.
=111	=111	=111	=111	=111	=111	=111	=111
1EE	f	4r	.	[2.B/ [2.g/	.	4gg\	.
.	.	8r	.	.	.	4r	.
.	.	8b\	.	.	.	.	.
.	.	4b\	.	.	.	4aa\	.
.	.	4r	.	8B/L] 8g/]	f	8r	.
.	.	.	.	8gg/J	.	8gg\	.
=112	=112	=112	=112	=112	=112	=112	=112
1FF#	f	4r	.	[2.B/ [2.a/	.	4ff#\	.
.	.	8r	.	.	.	8r	.
.	.	8b\	.	.	.	8ee\	.
.	.	4b\	.	.	.	4ff#\	.
.	.	4r	.	8B/L] 8a/]	f	8r	.
.	.	.	.	8aa/J	.	8dd#\	.
=113	=113	=113	=113	=113	=113	=113	=113
1GG	f	4r	.	4G/ 4e/ 4b/	.	4ee\	.
.	.	8r	.	4r	.	8r	.
.	.	8b\	.	.	.	8eee\	.
.	.	4b\	.	4gg\	.	4eee\	.
.	.	8r	.	8r	.	4r	.
.	.	8D/	.	8ff#\	.	.	.
=114	=114	=114	=114	=114	=114	=114	=114
1AA#	.	[2.C#/	.	4ee\	.	4r	.
.	.	.	.	8r	.	8r	.
.	.	.	.	8dd\	.	8eee\	.
.	.	.	.	4ee\	.	4eee\	.
.	.	8C#/L]	.	8r	.	4r	.
.	.	8c#/J	.	8f#/ 8cc#/	.	.	.
=115	=115	=115	=115	=115	=115	=115	=115
1BB	f	[2.D/	.	4f#/ 4dd/	.	4r	.
.	.	.	.	8r	.	8r	.
.	.	.	.	8f#/	.	8ddd\	.
.	.	.	.	4g/	.	4eee\	.
.	.	8D/L]	.	8r	.	8r	.
.	.	8d/J	.	8f#/	.	8ddd\	.
=116	=116	=116	=116	=116	=116	=116	=116
1C#	f	[2.E/	.	4f#/	.	4ccc#\	.
.	.	.	.	8r	.	8r	.
.	.	.	.	8f#/	.	8bb\	.
.	.	.	.	4f#/	.	4ccc#\	.
.	.	8E/L]	.	8r	.	8r	.
.	.	8e/J	.	8f#/	.	8aa#\	.
=117	=117	=117	=117	=117	=117	=117	=117
4D\	f	4f#\	.	4B/	.	4bb\	.
(8BB/L	.	(8B\L	.	(8B/L	.	(8B/L	.
8D/J	.	8d\J	.	8d/J	.	8d/J	.
4F#'\)	.	4f#'\)	.	4f#'/)	.	4f#'/)	.
(8G\L	.	(8g\L	.	(8g/L	.	(8g/L	.
8BB\J	.	8B\J	.	8B/J	.	8B/J	.
=118	=118	=118	=118	=118	=118	=118	=118
4AA#'/)	.	4A#'/)	.	4A#'/)	.	4A#'/)	.
4r	.	4r	.	4r	.	4r	.
2r	.	2r	.	2r	.	2r	.
=119	=119	=119	=119	=119	=119	=119	=119
4r	.	4r	.	4r	.	4r	.
(8BB/L	.	(8B\L	.	(8B/L	.	(8B/L	.
8D/J	.	8d\J	.	8d/J	.	8d/J	.
4F#'\)	.	4f#'\)	.	4f#'/)	.	4f#'/)	.
(8G\L	.	(8g\L	.	(8g/L	.	(8g/L	.
8BB\J	.	8B\J	.	8B/J	.	8B/J	.
=120	=120	=120	=120	=120	=120	=120	=120
4C#'/)	.	4c#'\)	.	4c#'/)	.	4c#'/)	.
(8C#\L	.	(8c#\L	.	(8c#/L	.	(8c#/L	.
8E\J	.	8e\J	.	8e/J	.	8e/J	.
4G'\)	.	4g'\)	.	4g'/)	.	4g'/)	.
(8A\L	.	(8a\L	.	(8a/L	.	(8a/L	.
8C#\J	.	8c#\J	.	8c#/J	.	8c#/J	.
=121	=121	=121	=121	=121	=121	=121	=121
4D'\)	.	4d'\)	.	4d'/)	.	4d'/)	.
(8D\L	.	(8D/L	.	(8d/L	.	(8d/L	.
8F#\J	.	8F#/J	.	8f#/J	.	8f#/J	.
4A'\)	.	4A'/)	.	4a'/)	.	4a'/)	.
(8B\L	.	(8B/L	.	(8b/L	.	(8b/L	.
8D\J	.	8D/J	.	8d/J	.	8d/J	.
=122	=122	=122	=122	=122	=122	=122	=122
4C#'/)	.	4C#'/)	.	4c#'/)	.	4c#'/)	.
4r	.	4r	.	4r	.	4r	.
2r	.	2r	.	2r	.	2r	.
=123	=123	=123	=123	=123	=123	=123	=123
4r	.	4r	.	4r	.	4r	.
(8C#\L	.	(8C#/L	.	(8c#/L	.	(8c#/L	.
8E\J	.	8E/J	.	8e/J	.	8e/J	.
4G'\)	.	4G'/)	.	4g'/)	.	4g'/)	.
(8A\L	.	(8A/L	.	(8a\L	.	(8a/L	.
8C#\J	.	8C#/J	.	8gg\J)	.	8c#/J	.
=124	=124	=124	=124	=124	=124	=124	=124
4D\)	.	4D/)	.	(8ff#\L	.	4d/)	.
.	.	.	.	8gg\	p	.	.
4r	p	4r	p	8ff#\	.	(8d/L	p
.	.	.	.	8ee\J	.	8f#/J	.
4r	.	4r	.	8dd\L	.	4b'\)	.
.	.	.	.	8cc#\	.	.	.
8f#\L	.	8a\L	.	8dd\	.	4r	.
8f#\J	.	8a\J	.	8b\J)	.	.	.
=125	=125	=125	=125	=125	=125	=125	=125
4e\	.	4g\	.	(8gg\L	.	4r	.
.	.	.	.	8aa\	.	.	.
4r	.	4r	.	8gg\	.	(8e/L	.
.	.	.	.	8ff#\J	.	8g/J	.
4r	.	4r	.	8ee\L	.	4cc#'\)	.
.	.	.	.	8dd\	.	.	.
8g\L	.	8b\L	.	8ee\	.	4r	.
8g\J	.	8b\J	.	8cc#\J)	.	.	.
=126	=126	=126	=126	=126	=126	=126	=126
4f#\	.	4a\	.	(8aa\L	.	4r	.
.	.	.	.	8bb\	.	.	.
4r	.	4r	.	8aa\	.	(8f#/L	.
.	.	.	.	8gg\J	.	8a/J	.
4r	.	4r	.	8ff#\L	.	4dd#'\)	.
.	.	.	.	8ee\	.	.	.
8f#\L	.	8a\L	.	8ff#\	.	4r	.
8f#\J	.	8a\J	.	8dd#\J)	.	.	.
=127	=127	=127	=127	=127	=127	=127	=127
4e\	.	4g\	.	(8bb\L	.	4r	.
.	.	.	.	8cccn\	.	.	.
4r	.	4r	.	8bb\	.	(8g/L	.
.	.	.	.	8aa\J	.	8b/J	.
4r	.	4r	.	8gg\L	.	4ee'\)	.
.	.	.	.	8ff#\	.	.	.
8E\L	.	8g\L	.	8gg\	.	4r	.
8E\J	.	8g\J	.	8ee\J)	.	.	.
=128	=128	=128	=128	=128	=128	=128	=128
4BB/	.	4D#/	.	8aa\L	.	4r	.
.	.	.	.	8gg\	.	.	.
4r	.	4r	.	8ff#\	.	(8d#/L	.
.	.	.	.	8ee\J	.	8b/J	.
4r	.	4r	.	8dd#\L	.	4ff#'\)	.
.	.	.	.	8ccn\	.	.	.
8BB/L	.	8f#\L	.	8b\	.	4r	.
8BB/J	.	8f#\J	.	8a\J	.	.	.
=129	=129	=129	=129	=129	=129	=129	=129
4EE/	.	4E/	.	8g/L	.	4r	.
.	.	.	.	8f#/	.	.	.
4r	.	4r	.	8e/	.	(8e/L	.
.	.	.	.	8dn/J	.	8b/J	.
4r	.	4r	.	8cn/L	.	4gg'\)	.
.	.	.	.	8B/	.	.	.
8e\L	.	8g\L	.	8A/	.	4r	.
8e\J	.	8g\J	.	8G/J	.	.	.
=130	=130	=130	=130	=130	=130	=130	=130
4c#\	.	4e\	.	4r	.	(8ee\L	.
.	.	.	.	.	.	8ff#\	.
4r	.	4r	.	(8c#/L	.	8ee\	.
.	.	.	.	8e/J	.	8dd\J	.
4r	.	4r	.	4a'/)	.	8cc#\L	.
.	.	.	.	.	.	8b\	.
8e\L	.	8g\L	.	4r	.	8cc#\	.
8e\J	.	8g\J	.	.	.	8a\J)	.
=131	=131	=131	=131	=131	=131	=131	=131
4d\	.	4f#\	.	4r	.	(8ff#\L	.
.	.	.	.	.	.	8gg\	.
4r	.	4r	.	(8d/L	.	8ff#\	.
.	.	.	.	8f#/J	.	8ee\J	.
4r	.	4r	.	4b'\)	.	8dd\L	.
.	.	.	.	.	.	8cc#\	.
8f#\L	.	8a\L	.	4r	.	8dd\	.
8f#\J	.	8a\J	.	.	.	8b\J)	.
=132	=132	=132	=132	=132	=132	=132	=132
4e\	.	4g\	.	4r	.	(8gg\L	.
.	.	.	.	.	.	8aa\	.
4r	.	4r	.	(8e/L	.	8gg\	.
.	.	.	.	8g/J	.	8ff#\J	.
4r	.	4r	.	4cc#'\)	.	8ee\L	.
.	.	.	.	.	.	8cc#\	.
8A\L	.	8G/L	.	4r	.	8dd\	.
8A\J	.	8G/J	.	.	.	8cc#\J)	.
=133	=133	=133	=133	=133	=133	=133	=133
4D\	.	4f#\	.	4r	.	(8aa\L	.
.	.	.	.	.	.	8bb\	.
4r	.	4r	.	(8f#/L	.	8aa\	.
.	.	.	.	8a/J	.	8gg\J	.
4r	.	4r	.	4dd'\)	.	8ff#\L	.
.	.	.	.	.	.	8ee\	.
8D\L	.	8F#/L	.	4r	.	8ff#\	.
8D\J	.	8F#/J	.	.	.	8dd\J)	.
=134	=134	=134	=134	=134	=134	=134	=134
4AA/	.	4e\	.	4r	.	8gg\L	.
.	.	.	.	.	.	8ff#\	.
4r	.	4r	.	(8c#/L	.	8ee\	.
.	.	.	.	8a/J	.	8dd\J	.
4r	.	4r	.	4ee'\)	.	8cc#/L	.
.	.	.	.	.	.	8b/	.
8AA/L	.	8E/L	.	4r	.	8a/	.
8AA/J	.	8E/J	.	.	.	8g/J	.
=135	=135	=135	=135	=135	=135	=135	=135
4DD/	.	4F#/	.	4r	.	8f#/L	.
.	.	.	.	.	.	8e/	.
4r	.	4r	.	(8d/L	.	8d/	.
.	.	.	.	8a/J	.	8c#/J	.
4r	.	4r	.	4ff#'\)	.	8B/L	.
.	.	.	.	.	.	8A/	.
8d\L	.	8A\L 8f#\	.	4r	.	8G/	.
8d\J	.	8A\J 8f#\	.	.	.	8f#/J	.
=136	=136	=136	=136	=136	=136	=136	=136
4B#\	.	4f#\	.	(8dd#\L	.	4r	.
.	.	.	.	8ee\	.	.	.
4r	.	4r	.	8dd#\	.	(8B#/L	.
.	.	.	.	8cc#\J)	.	8g#/J	.
4r	.	4r	.	(8cc#\L	.	4dd#'\)	.
.	.	.	.	8b#\	.	.	.
8G#\L	.	8f#\L	.	8dd#\	.	4r	.
8G#\J	.	8f#\J	.	8b#\J)	.	.	.
=137	=137	=137	=137	=137	=137	=137	=137
4C#/	.	4e\	.	(8ee\L	.	4r	.
.	.	.	.	8ff#\	.	.	.
4r	.	4r	.	8ee\	.	(8c#/L	.
.	.	.	.	8dd#\J)	.	8g#/J	.
4r	.	4r	.	(8dd#\L	.	4ee'\)	.
.	.	.	.	8cc#\	.	.	.
8C#/L	.	8e\L	.	8ee\	.	4r	.
8C#/J	.	8e\J	.	8cc#\J)	.	.	.
=138	=138	=138	=138	=138	=138	=138	=138
4GG#/	.	4d#\	.	(8ff#\L	.	4r	.
.	.	.	.	8gg#\	.	.	.
4r	.	4r	.	8ff#\	.	(8d#/L	.
.	.	.	.	8ee\J)	.	8g#/J	.
4r	.	4r	.	(8ee\L	.	4ff#'\)	.
.	.	.	.	8dd#\	.	.	.
8GG#/L	.	8B#/L	.	8ff#\	.	4r	.
8GG#/J	.	8B#/J	.	8dd#\J)	.	.	.
=139	=139	=139	=139	=139	=139	=139	=139
4EE/	.	4c#\	.	8gg#\L	.	4r	.
.	.	.	.	8ff#\	.	.	.
4r	.	4r	.	8ee\	.	(8e/L	.
.	.	.	.	8dd#\J	.	8cc#/J	.
4r	.	4r	.	8cc#/L	.	4gg#'\)	.
.	.	.	.	8b/	.	.	.
8GG#/L	.	8c#\L 8e\	.	8a/	.	4r	.
8GG#/J	.	8c#\J 8e\	.	8g#/J	.	.	.
=140	=140	=140	=140	=140	=140	=140	=140
*k[f#c#g#d#]	*k[f#c#g#d#]	*k[f#c#g#d#]	*k[f#c#g#d#]	*k[f#c#g#d#]	*k[f#c#g#d#]	*k[f#c#g#d#]	*k[f#c#g#d#]
4GG#/	.	4B#/	.	8f#/L	.	4r	.
.	.	.	.	8e/	.	.	.
4r	.	4r	.	8d#/	.	(8g#\L	.
.	.	.	.	8c#/J	.	8dd#\J	.
4r	.	4r	.	8B#/L	.	4bb#'\)	.
.	.	.	.	8A/	.	.	.
8GG#/L	.	8d#\L	.	8G#/	.	4r	.
8GG#/J	.	8d#\J	.	8f#/J	.	.	.
=141	=141	=141	=141	=141	=141	=141	=141
4GG#/	.	4c#\	.	8e/L	.	4r	.
.	.	.	.	8f#/	.	.	.
4r	.	4r	.	8g#/	.	(8g#\L	.
.	.	.	.	8an/J	.	8ee\J	.
4r	.	4r	.	8b\L	.	4ccc#'\)	.
.	.	.	.	8cc#\	.	.	.
8GG#/L	.	8c#\L	.	8dd#\	.	4r	.
8GG#/J	.	8c#\J	.	8ee\J	.	.	.
=142	=142	=142	=142	=142	=142	=142	=142
4GG#/	.	8e\L	.	8gg#\L	.	4r	.
.	.	8d#\	.	8ff#\	.	.	.
4r	.	8c#\	.	8ee\	.	(8g#\L	.
.	.	8B\J	.	8dd#\J	.	8ee\J	.
4r	.	8A/L	.	8cc#/L	.	4ccc#'\)	.
.	.	8G#/	.	8b/	.	.	.
8GG#/L	.	8F#/	.	8a/	.	4r	.
8GG#/J	.	8E/J	.	8g#/J	.	.	.
=143	=143	=143	=143	=143	=143	=143	=143
4GG#/	.	8D#/L	.	8f#/L	.	4r	.
.	.	8E/	.	8e/	.	.	.
4r	.	8F#/	.	8d#/	.	(8g#\L	.
.	.	8G#/J	.	8c#/J	.	8ff#\J	.
4r	.	8G#/L	.	8B#/L	.	4ddd#'\)	.
.	.	8B#/	.	8A/	.	.	.
8GG#/L	.	8c#/	.	8G#/	.	4r	.
8GG#/J	.	8d#/J	.	8f#/J	.	.	.
=144	=144	=144	=144	=144	=144	=144	=144
4GG#/	.	8c#\L	.	8e/L	.	8eee\L	.
.	.	8d#\	.	8f#/	.	8ddd#\	.
4r	.	8e\	.	8g#/	.	8ccc#\	.
.	.	8f#\J	.	8a/J	.	8bb\J	.
4r	.	8g#\L	.	8bn\L	.	8aa\L	.
.	.	8a\	.	8cc#\	.	8gg#\	.
8GG#/L	.	8bn\	.	8dd#\	.	8ff#\	.
8GG#/J	.	8cc#\J	.	8ee\J	.	8ee\J	.
=145	=145	=145	=145	=145	=145	=145	=145
4GG#/	.	8E/L	.	4r	.	(8gg#\L	.
.	.	8F#/	.	.	.	8aa\	.
4r	.	8G#/	.	(8g#\L	.	8gg#\	.
.	.	8A/J	.	8ee\J	.	8ff#\J	.
4r	.	8B\L	.	4ccc#'\)	.	8gg#\L	.
.	.	8c#\	.	.	.	8ee\	.
8GG#/L	.	8d#\	.	4r	.	8ff#\	.
8GG#/J	.	8e\J	.	.	.	8ee\J)	.
=146	=146	=146	=146	=146	=146	=146	=146
4GG#/	.	8D#/L	.	4r	.	(8ff#\L	.
.	.	8E/	.	.	.	8gg#\	.
4r	.	8F#/	.	(8g#\L	.	8ff#\	.
.	.	8G#/J	.	8ff#\J	.	8ee\J	.
4r	.	8G#/L	.	4ddd#'\)	.	8ff#\L	.
.	.	8F#/	.	.	.	8dd#\	.
8GG#/L	.	8G#/	.	4r	.	8ee\	.
8GG#/J	.	8F#/J	.	.	.	8dd#\J)	.
=147	=147	=147	=147	=147	=147	=147	=147
4GG#/	.	8C#/L	.	4r	.	(8ee\L	.
.	.	8D#/	.	.	.	8ff#\	.
4r	.	8E/	.	(8g#\L	.	8ee\	.
.	.	8F#/J	.	8ee\J	.	8dd#\J	.
4r	.	8G#/L	.	4ccc#'\)	.	8ee\L	.
.	.	8A/	.	.	.	8cc#\	.
8GG#/L	.	8B/	.	4r	.	8dd#\	.
8GG#/J	.	8c#/J	.	.	.	8cc#\J)	.
=148	=148	=148	=148	=148	=148	=148	=148
(2GG#/	p	(8D#/L	p	(8B#/L	p	[1g#	p
.	.	8C#/	.	8c#/	.	.	.
.	.	8D#/	.	8B#/	.	.	.
.	.	8C#/J	.	8c#/J	.	.	.
[2FF#/)	.	8D#/L	.	8B#/L	.	.	.
.	.	8C#/	.	8c#/	.	.	.
.	.	8D#/	.	8B#/	.	.	.
.	.	8C#/J	.	8c#/J	.	.	.
=149	=149	=149	=149	=149	=149	=149	=149
1FF#_	.	8D#/L	.	8B#/L	.	(8g#/L]	.
.	.	8C#/	.	8c#/	.	8a/	.
.	.	8D#/	.	8B#/	.	8g#/	.
.	.	8C#/J	.	8c#/J	.	8a/J	.
.	.	8D#/L	.	8B#/L	.	8g#/L	.
.	.	8C#/	.	8c#/	.	8a/	.
.	.	8D#/	.	8B#/	.	8g#/	.
.	.	8C#/J	.	8c#/J	.	8a/J	.
=150	=150	=150	=150	=150	=150	=150	=150
1FF#]	.	8D#/L	.	8B#/L	.	8g#/L	.
.	.	8C#/	.	8c#/	.	8a/	.
.	.	8D#/	.	8B#/	.	8g#/	.
.	.	8C#/J	.	8c#/J	.	8a/J	.
.	.	8D#/L	.	8B#/L	.	8g#/L	.
.	.	8C#/	.	8c#/	.	8a/	.
.	.	8D#/	.	8B#/	.	8g#/	.
.	.	8E/J)	.	8c#/J)	.	8a/J)	.
=151	=151	=151	=151	=151	=151	=151	=151
(2GG#/	.	(8D#/L	.	(8B#/L	.	2g#/	.
.	.	8C#/	.	8c#/	.	.	.
.	.	8D#/	.	8B#/	.	.	.
.	.	8C#/J	.	8c#/J	.	.	.
[2FF#/)	.	8D#/L	.	8B#/L	.	[2gg#\	.
.	.	8C#/	.	8c#/	.	.	.
.	.	8D#/	.	8B#/	.	.	.
.	.	8C#/J	.	8c#/J	.	.	.
=152	=152	=152	=152	=152	=152	=152	=152
1FF#_	.	8D#/L	.	8B#/L	.	(8gg#\L]	.
.	.	8C#/	.	8c#/	.	8aa\	.
.	.	8D#/	.	8B#/	.	8gg#\	.
.	.	8C#/J	.	8c#/J	.	8aa\J	.
.	.	8D#/L	.	8B#/L	.	8gg#\L	.
.	.	8C#/	.	8c#/	.	8aa\	.
.	.	8D#/	.	8B#/	.	8gg#\	.
.	.	8C#/J	.	8c#/J	.	8aa\J	.
=153	=153	=153	=153	=153	=153	=153	=153
1FF#]	.	8D#/L	.	8B#/L	.	8gg#\L	.
.	.	8C#/	.	8c#/	.	8aa\	.
.	.	8D#/	.	8B#/	.	8gg#\	.
.	.	8C#/J	.	8c#/J	.	8aa\J	.
.	.	8D#/L	.	8B#/L	.	8gg#\L	.
.	.	8C#/	.	8c#/	.	8aa\	.
.	.	8D#/	.	8B#/	.	8gg#\	.
.	.	8E/J)	.	8c#/J)	.	8aa\J)	.
=154	=154	=154	=154	=154	=154	=154	=154
(2GG#/	p	(8D#/L	p	(8B#/L	p	(8gg#\L	p
.	.	8C#/	.	8c#/	.	8aa\	.
.	.	8D#/	.	8B#/	.	8gg#\	.
.	.	8C#/J	.	8c#/J	.	8aa\J	.
2FF#/	.	8D#/L	.	8B#/L	.	8gg#\L	.
.	.	8C#/	.	8c#/	.	8aa\	.
.	.	8D#/	.	8B#/	.	8gg#\	.
.	.	8E/J	.	8c#/J	.	8aa\J	.
=155	=155	=155	=155	=155	=155	=155	=155
2GG#/	pp	8D#/L	pp	8B#/L	pp	8gg#\L	.
.	.	8C#/	.	8c#/	.	8aa\	pp
.	.	8D#/	.	8B#/	.	8gg#\	.
.	.	8C#/J	.	8c#/J	.	8aa\J	.
2FF#/	.	8D#/L	.	8B#/L	.	8gg#\L	.
.	.	8C#/	.	8c#/	.	8aa\	.
.	.	8D#/	.	8B#/	.	8gg#\	.
.	.	8E/J	.	8c#/J	.	8aa\J	.
=156	=156	=156	=156	=156	=156	=156	=156
2GG#/	.	8D#/L	.	8B#/L	.	8gg#\L	.
.	.	8C#/	.	8c#/	.	8aa\	.
.	.	8D#/	.	8B#/	.	8gg#\	.
.	.	8C#/J	.	8c#/J	.	8aa\J	.
2FF#/)	.	8D#/L	.	8B#/L	.	8gg#\L	.
.	.	8C#/	.	8c#/	.	8aa\	.
.	.	8D#/	.	8B#/	.	8gg#\	.
.	.	8E/J)	.	8c#/J)	.	8aa\J)	.
=157	=157	=157	=157	=157	=157	=157	=157
(4GG#/	.	(8D#/L	.	(8B#/L	.	(8gg#\L	.
.	.	8C#/	.	8c#/	.	8aa\	.
4FF#/	.	8D#/	.	8B#/	.	8gg#\	.
.	.	8E/J)	.	8c#/J	.	8aa\J	.
4GG#/	.	(8D#/L	.	8B#/L	.	8gg#\L	.
.	.	8C#/	.	8c#/	.	8aa\	.
4FF#/)	.	8D#/	.	8B#/	.	8gg#\	.
.	.	8E/J)	.	8c#/J	.	8aa\J	.
=158	=158	=158	=158	=158	=158	=158	=158
(4GG#/	.	(8D#/L	.	8B#/L	.	8gg#\L	.
.	.	8C#/	.	8c#/	.	8aa\	.
4FF#/	.	8D#/	.	8B#/	.	8gg#\	.
.	.	8E/J)	.	8c#/J	.	8aa\J	.
4GG#/	.	(8D#/L	.	8B#/L	.	8gg#\L	.
.	.	8C#/	.	8c#/	.	8aa\	.
4FF#/)	.	8D#/	.	8B#/	.	8gg#\	.
.	.	8E/J)	.	8c#/J	.	8aa\J	.
=159	=159	=159	=159	=159	=159	=159	=159
(4GG#/	.	(8D#/L	.	8B#/L	.	8gg#\L	.
.	.	8C#/	.	8c#/	.	8aa\	.
4FF#/	.	8D#/	.	8B#/	.	8gg#\	.
.	.	8E/J)	.	8c#/J	.	8aa\J	.
4GG#/)	.	(8D#/L	.	8B#/L	.	8gg#\L	.
.	.	8C#/	.	8c#/	.	8aa\	.
4GG#/	.	8D#/)	.	8B#/)	.	8gg#\	.
.	.	8D#/J	.	8B#/J	.	8gg#\J)	.
=160	=160	=160	=160	=160	=160	=160	=160
4CC#'/	ff	4C#'/	ff	4c#'/	.	(8gg#\L	ff
.	.	.	.	.	.	8aa\	.
4r	.	(8E/L	.	(8e/L	ff	8gg#\	.
.	.	8G#/J	.	8g#/J	.	8aa\J	.
2r	.	4c#'\)	.	4cc#'\)	.	8gg#\L	.
.	.	.	.	.	.	8aa\	.
.	.	(8e\L	.	(8ee\L	.	8gg#\	.
.	.	8g#\J	.	8gg#\J	.	8aa\J	.
=161	=161	=161	=161	=161	=161	=161	=161
4r	.	4cc#'\)	.	4ccc#'\)	.	8gg#\L	.
.	.	.	.	.	.	8aa\	.
(8CC#/L	.	8r	.	8r	.	8gg#\	.
8EE/J	.	8c#\	.	8G#/ 8e/	.	8aa\J	.
4GG#'/)	.	4c#\	.	4G#/ 4e/	.	8gg#\L	.
.	.	.	.	.	.	8aa\	.
(8AA/L	.	8r	.	8r	.	8gg#\	.
8CC#/J	.	8c#\	.	8G#/ 8e/	.	8aa\J	.
=162	=162	=162	=162	=162	=162	=162	=162
4BBB#'/)	.	4d#\	.	4G#/ 4f#/	.	8gg#\L	.
.	.	.	.	.	.	8aa\	.
4r	.	(8BB#/L	.	(8B#/L	.	8gg#\	.
.	.	8D#/J	.	8d#/J	.	8aa\J	.
2r	.	4F#'/)	.	4f#'/)	.	8gg#\L	.
.	.	.	.	.	.	8aa\	.
.	.	(8B#\L	.	(8b#\L	.	8gg#\	.
.	.	8d#\J	.	8dd#\J	.	8aa\J	.
=163	=163	=163	=163	=163	=163	=163	=163
4r	.	4f#'\)	.	4ff#'\)	.	8gg#\L	.
.	.	.	.	.	.	8aa\	.
(8BBB#/L	.	8r	.	8r	.	8gg#\	.
8DD#/J	.	8d#\	.	8G#/ 8f#/	.	8aa\J	.
4GG#'/)	.	4d#\	.	4G#/ 4f#/	.	8gg#\L	.
.	.	.	.	.	.	8aa\	.
(8AA/L	.	8r	.	8r	.	8gg#\	.
8BBB#/J	.	8d#\	.	8G#/ 8f#/	.	8aa\J)	.
=164	=164	=164	=164	=164	=164	=164	=164
4CC#'/)	.	4c#'\	.	4G#/ 4e/	.	4gg#\	.
(8EE/L	.	(8E/L	.	8r	.	4r	.
8GG#/J	.	8G#/J	.	8G#/ 8e/	.	.	.
4C#'/)	.	4c#'\)	.	4G#/ 4e/	.	2r	.
(8E\L	.	(8e\L	.	8r	.	.	.
8G#\J	.	8g#\J	.	8G#/ 8e/	.	.	.
=165	=165	=165	=165	=165	=165	=165	=165
4c#'\)	.	4cc#'\)	.	4G#/ 4e/	.	4r	.
4r	.	4r	.	8r	.	(8cc#\L	.
.	.	.	.	8G#/ 8e/	.	8ee\J	.
2r	.	2r	.	4G#/ 4e/	.	4gg#'\)	.
.	.	.	.	8r	.	(8aa\L	.
.	.	.	.	8G#/ 8e/	.	8cc#\J	.
=166	=166	=166	=166	=166	=166	=166	=166
4GG#/	.	4G#/	.	4G#/ 4f#/	.	4b#'\)	.
(8BB#/L	.	(8B#\L	.	8r	.	4r	.
8D#/J	.	8d#\J	.	8G#/ 8f#/	.	.	.
4G#'\)	.	4g#'\)	.	4G#/ 4f#/	.	2r	.
(8B#\L	.	(8b#\L	.	8r	.	.	.
8d#\J	.	8dd#\J	.	8G#/ 8f#/	.	.	.
=167	=167	=167	=167	=167	=167	=167	=167
4f#'\)	.	4ff#'\)	.	4G#/ 4d#/	.	4r	.
8r	.	8r	.	8r	.	(8b#\L	.
8GG#/	.	8B#/	.	8G#/ 8d#/	.	8dd#\J	.
4GG#/	.	4B#/	.	4G#/ 4d#/	.	4gg#'\)	.
8r	.	8r	.	8r	.	(8aa\L	.
8GG#/	.	8d#\	.	8G#/ 8f#/	.	8b#\J	.
=168	=168	=168	=168	=168	=168	=168	=168
4GG#/	.	4c#\	.	4G#/ 4e/	.	4cc#'\)	.
8r	.	8r	.	8r	.	4r	.
8GG#/	.	8c#\	.	8G#/ 8e/	.	.	.
4GG#/	.	4c#\	.	4G#/ 4e/	.	4cc#\	.
8r	.	8r	.	8r	.	8r	.
8FF#/	.	8G#/	.	8B#/	.	8dd#\	.
=169	=169	=169	=169	=169	=169	=169	=169
4EE/	.	4G#/	.	4c#/	.	4ee\	.
8r	.	8r	.	8r	.	8r	.
8DD#/	.	8F#/	.	8G#/	.	8ff#\	.
4CC#/	.	4E/	.	4G#/	.	4gg#\	.
8r	.	4D#/	.	8r	.	8r	.
8BBB#/	.	.	.	8f#/	.	8aa\	.
=170	=170	=170	=170	=170	=170	=170	=170
1CC#	.	4E/	.	4e/	.	4gg#\	.
.	.	8r	.	8r	.	4r	.
.	.	8E/	.	8e/	.	.	.
.	.	4E/	.	4e/	.	4gg#\	.
.	.	8r	.	8r	.	8r	.
.	.	8E/	.	8e/	.	8ff#\	.
=171	=171	=171	=171	=171	=171	=171	=171
1AA	.	4c#\	.	4f#/	.	4ee\	.
.	.	8r	.	8r	.	8r	.
.	.	8c#\	.	8f#/	.	8dd#\	.
.	.	4c#\	.	4f#/	.	4ee\	.
.	.	8r	.	8r	.	8r	.
.	.	8c#\	.	8f#/	.	8cc#\	.
=172	=172	=172	=172	=172	=172	=172	=172
4GG#/	.	4B#/	.	4g#/	.	4dd#\	.
4r	.	8r	.	8r	.	4r	.
.	.	8B#/	.	8G#/	.	.	.
2r	.	4B#/	.	4G#/	.	4ff#\	.
.	.	8r	.	8r	.	8r	.
.	.	8c#\	.	8A/	.	8ee\	.
=173	=173	=173	=173	=173	=173	=173	=173
1r	.	4d#\	.	4B#/	.	4dd#\	.
.	.	8r	.	8r	.	8r	.
.	.	8e\	.	8c#/	.	8cc#\	.
.	.	4f#\	.	4d#/	.	4b#\	.
.	.	8r	.	8r	.	8r	.
.	.	8G#/	.	8d#/ 8f#/	.	8a/	.
=174	=174	=174	=174	=174	=174	=174	=174
1r	.	1G#	.	4d#/ 4f#/	.	4g#/	.
.	.	.	.	4r	.	8r	.
.	.	.	.	.	.	8g#/	.
.	.	.	.	4ff#\	.	4g#/	.
.	.	.	.	8r	.	8r	.
.	.	.	.	8ee\	.	8g#/	.
=175	=175	=175	=175	=175	=175	=175	=175
1r	.	1f#	.	4dd#\	.	4g#/	.
.	.	.	.	8r	.	8r	.
.	.	.	.	8cc#\	.	8g#/	.
.	.	.	.	4dd#\	.	4g#/	.
.	.	.	.	8r	.	8r	.
.	.	.	.	8b#\	.	8g#/	.
=176	=176	=176	=176	=176	=176	=176	=176
1r	.	4e\	.	4cc#\	.	4g#/	.
.	.	4r	.	8r	.	8r	.
.	.	.	.	8gg#\	.	8g#/	.
.	.	4C#/	.	4gg#\	.	4e/	.
.	.	8r	.	8r	.	8r	.
.	.	8D#/	.	8ff#\	.	8f#/	.
=177	=177	=177	=177	=177	=177	=177	=177
1r	.	4E/	.	4ee\	.	4g#/	.
.	.	8r	.	8r	.	8r	.
.	.	8F#/	.	8dd#\	.	8a/	.
.	.	4G#/	.	4cc#\	.	4e/	.
.	.	8r	.	8r	.	8r	.
.	.	8A/	.	8b#\	.	8f#/	.
=178	=178	=178	=178	=178	=178	=178	=178
2r	.	4G#/	.	1cc#	.	4e/	.
.	.	8r	.	.	.	8r	.
.	.	8g#\	.	.	.	8c#/ 8e/	.
4GG#/	.	4ee\	.	.	.	4c#/ 4e/	.
8r	.	8r	.	.	.	8r	.
8FF#/	.	8dd#\	.	.	.	8c#/ 8e/	.
=179	=179	=179	=179	=179	=179	=179	=179
4EE/	.	4cc#\	.	1aa	.	4c#/ 4e/	.
8r	.	8r	.	.	.	8r	.
8DD#/	.	8b#\	.	.	.	8c#/ 8e/	.
4EE/	.	4cc#\	.	.	.	4c#/ 4e/	.
8r	.	8r	.	.	.	8r	.
8CC#/	.	8E/	.	.	.	8c#/ 8e/	.
=180	=180	=180	=180	=180	=180	=180	=180
4BBB#/	.	4F#/	.	4gg#\	.	4d#/ 4f#/	.
4r	.	4r	.	4r	.	8r	.
.	.	.	.	.	.	8d#/ 8f#/	.
4GG#/	.	4F#/	.	2r	.	4B#/	.
8r	.	8r	.	.	.	8r	.
8AA/	.	8F#/	.	.	.	8c#/	.
=181	=181	=181	=181	=181	=181	=181	=181
4BB#/	.	4F#/	.	1r	.	4d#/	.
8r	.	8r	.	.	.	8r	.
8C#/	.	8E/	.	.	.	8e/	.
4D#\	.	4D#/	.	.	.	4f#/	.
8r	.	8r	.	.	.	8r	.
8E\	.	8C#/	.	.	.	8g#/	.
=182	=182	=182	=182	=182	=182	=182	=182
4F#\	.	4BB#/	.	4d#/	.	1g#	.
4r	.	4r	.	8r	.	.	.
.	.	.	.	8d#/	.	.	.
2r	.	4f#\	.	4d#/	.	.	.
.	.	8r	.	8r	.	.	.
.	.	8e\	.	8c#/	.	.	.
=183	=183	=183	=183	=183	=183	=183	=183
1r	.	4d#\	.	4B#/	.	(1ff#	.
.	.	8r	.	8r	.	.	.
.	.	8c#\	.	8e/	.	.	.
.	.	4d#\	.	4f#/	.	.	.
.	.	8r	.	8r	.	.	.
.	.	8B#/	.	8d#/	.	.	.
=184	=184	=184	=184	=184	=184	=184	=184
1C#	.	4dn\	.	4e#/	.	2.ee#\	.
.	.	8r	.	8r	.	.	.
.	.	8c#\	.	8bn\	.	.	.
.	.	4d\	.	4b\	.	.	.
.	.	8r	.	8r	.	4ff#\	.
.	.	8c#\	.	8a/	.	.	.
=185	=185	=185	=185	=185	=185	=185	=185
1B	.	4B/	.	4g#/	.	2ee#\	.
.	.	8r	.	8r	.	.	.
.	.	8A/	.	8f#/	.	.	.
.	.	4B/	.	(4g#/	.	2ddn\)	.
.	.	4e#\	.	4c#/)	.	.	.
=186	=186	=186	=186	=186	=186	=186	=186
2.A\	.	2.c#\	.	(2e#/	.	2.cc#\	.
.	.	.	.	4f#/)	.	.	.
(4A\	p	(4c#\	.	(4f#/	.	(4ff#\	.
=187	=187	=187	=187	=187	=187	=187	=187
4G#\	.	4B/	p	[1c#)	p	4ee#\	p
4F#\	.	4A/	.	.	.	4ff#\	.
4E#\	.	4G#/	.	.	.	4gg#\	.
4F#\)	.	4F#/)	.	.	.	4aa\	.
=188	=188	=188	=188	=188	=188	=188	=188
(1C#	.	(1E#	.	1c#]	.	4gg#\)	.
.	.	.	.	.	.	4r	.
.	.	.	.	.	.	4r	.
.	.	.	.	.	.	(4ff#\	.
=189	=189	=189	=189	=189	=189	=189	=189
1B)	.	2.En/)	.	2.G#/	.	2ee#\	.
.	.	.	.	.	.	2ddn\	.
.	.	(4C#/	.	(4c#/	.	.	.
=190	=190	=190	=190	=190	=190	=190	=190
2.A\	.	2E#/	.	2e#/	.	2.cc#\)	.
.	.	4F#/)	.	4f#/)	.	.	.
(4F#\	p	(4A/	p	[4c#/	p	(4ff#\	p
=191	=191	=191	=191	=191	=191	=191	=191
1C#)	.	4F#/	.	(4c#/]	.	4aa\	.
.	.	4G#/	.	4B/	.	4gg#\	.
.	.	4F#/	.	4A/	.	4ff#\	.
.	.	4G#/)	.	4B/)	.	4ee#\)	.
=192	=192	=192	=192	=192	=192	=192	=192
(4AA/	.	(4C#/	.	4A/	.	4ff#\	.
4GG#/	.	4G#/	.	4r	.	4r	.
4FF#/)	.	4F#/)	.	2r	.	2r	.
(4FF#/	.	(4F#/	.	.	.	.	.
=193	=193	=193	=193	=193	=193	=193	=193
2EE#/	.	2E#/	.	2r	.	2r	.
2DDn/	.	2Dn/	.	4r	.	4r	.
.	.	.	.	(4G#/	.	(4e#/	.
=194	=194	=194	=194	=194	=194	=194	=194
2.CC#/)	.	2.C#/)	.	2e#/	.	2g#/	.
.	.	.	.	4f#/)	.	4a/)	.
(4FF#/	p	(4F#/	.	4r	.	4r	.
=195	=195	=195	=195	=195	=195	=195	=195
4EE#/	p	4E#/	.	1r	.	1r	.
4FF#/	.	4F#/	.	.	.	.	.
4GG#/	.	4G#/	.	.	.	.	.
4AA/	.	4A/	.	.	.	.	.
=196	=196	=196	=196	=196	=196	=196	=196
2.GG#/)	.	2.G#/)	.	1r	.	1r	.
(4FF#/	.	(4F#/	.	.	.	.	.
=197	=197	=197	=197	=197	=197	=197	=197
2EE#/	.	2E#/	.	2r	.	2r	.
2DDn/	.	2Dn/	.	4r	.	4r	.
.	.	.	.	(4G#/	.	(4ee#\	.
=198	=198	=198	=198	=198	=198	=198	=198
2.CC#/)	.	2.C#/)	.	2e#/	.	2gg#\	.
.	.	.	.	4f#/)	.	4aa\)	.
(4FF#/	.	(4F#/	p	4r	.	4r	.
=199	=199	=199	=199	=199	=199	=199	=199
4AA/	p	4A/	.	1r	.	1r	.
4GG#/	.	4G#/	.	.	.	.	.
4FF#/	.	4F#/	.	.	.	.	.
4EE#/	.	4E#/	.	.	.	.	.
=200	=200	=200	=200	=200	=200	=200	=200
4BB/	.	4B/	.	2r	.	1r	.
4AA/	.	4A/	.	.	.	.	.
4GG#/	.	4G#/	.	4r	.	.	.
4FF#/)	.	4F#/)	.	(4f#/	.	.	.
=201	=201	=201	=201	=201	=201	=201	=201
(4C#/	.	(4c#\	.	4a/	p	1r	.
4BB/	.	4B/	.	4g#/	.	.	.
4AA/	.	4A/	.	4f#/	.	.	.
4GG#/	.	4G#/	.	4e#/	.	.	.
=202	=202	=202	=202	=202	=202	=202	=202
4Dn\	.	4dn\	.	4b\	.	2r	.
4C#/	.	4c#\	.	4a/	.	.	.
4BB/	.	4B/	.	4g#/	.	4r	.
4AA/)	.	4A/)	.	4f#/)	.	4ccc#\	p
=203	=203	=203	=203	=203	=203	=203	=203
4C#/	p	4G#/	p	(8g#/L	p	4bb\	.
.	.	.	.	8a/	.	.	.
8r	.	4r	.	8g#/	.	8r	.
8c#\	.	.	.	8f#/J	.	8aa\	.
4c#\	.	4r	.	8g#/L	.	4bb\	.
.	.	.	.	8e#/	.	.	.
8r	.	8r	.	8f#/	.	8r	.
8c#\	.	8C#/	.	8e#/J)	.	8gg#\	.
=204	=204	=204	=204	=204	=204	=204	=204
4c#\	.	4C#/	.	(8f#/L	.	(2aa\	.
.	.	.	.	8g#/	.	.	.
8r	.	4r	.	8f#/	.	.	.
8c#\	.	.	.	8e#/J	.	.	.
4c#\	.	4r	.	8f#/L	.	4bb\)	.
.	.	.	.	8a/	.	.	.
8r	.	8r	.	8g#/	.	8r	.
8c#\	.	8C#/	.	8f#/J)	.	8aa\	.
=205	=205	=205	=205	=205	=205	=205	=205
4c#\	.	4C#/	.	(8b\L	.	4gg#\	.
.	.	.	.	8cc#\	.	.	.
8r	.	4r	.	8b\	.	8r	.
8c#\	.	.	.	8a\J	.	8ff#\	.
4c#\	.	4r	.	8b/L	.	4gg#\	.
.	.	.	.	8g#/	.	.	.
8r	.	8r	.	8a/	.	8r	.
8c#\	.	8C#/	.	8g#/J)	.	8ee#\	.
=206	=206	=206	=206	=206	=206	=206	=206
4c#\	.	4C#/	.	(8a/L	.	(2ff#\	.
.	.	.	.	8b/	.	.	.
8r	.	4r	.	8a/	.	.	.
8c#\	.	.	.	8g#/J	.	.	.
4c#\	.	4r	.	8a/L	.	4bb\)	.
.	.	.	.	8f#/	.	.	.
8r	.	8r	.	8gn/	.	8r	.
8dn\	.	8Dn/	.	8f#/J)	.	8aa\	.
=207	=207	=207	=207	=207	=207	=207	=207
4A\	.	4c#\	.	(8e/L	.	4ggn\	.
.	.	.	.	8f#/	.	.	.
8r	.	4r	.	8e/	.	8r	.
8A\	.	.	.	8dn/J	.	8ff#\	.
4A\	.	4r	.	8e/L	.	4gg\	.
.	.	.	.	8c#/	.	.	.
8r	.	8r	.	8d/	.	8r	.
8A\	.	8gn\	.	8c#/J)	.	8ee\	.
=208	=208	=208	=208	=208	=208	=208	=208
4A\	.	4f#\	.	4dn/	.	(8ff#\L	.
.	.	.	.	.	.	8ddn\	.
4r	.	4r	.	4r	.	8ee\	.
.	.	.	.	.	.	8ff#\J	.
4B\	.	4r	.	4d/	.	8ggn\L	.
.	.	.	.	.	.	8aa\	.
8r	.	8r	.	8r	.	8gg\	.
8A\	.	8f#\	.	8c#/	.	8ff#\J)	.
=209	=209	=209	=209	=209	=209	=209	=209
4Gn\	.	4b\	.	4B/	.	(8ee\L	.
.	.	.	.	.	.	8ff#\	.
8r	.	4r	.	8r	.	8ee\	.
8F#\	.	.	.	8A/	.	8dd#\J	.
4G\	.	4r	.	4B/	.	8ee\L	.
.	.	.	.	.	.	8cc#\	.
8r	.	8r	.	8r	.	8ddn\	.
8E\	.	8A/	.	8Gn/	.	8cc#\J)	.
=210	=210	=210	=210	=210	=210	=210	=210
4F#\	.	(8A\L	.	4a/	.	4ddn\	.
.	.	8f#\	.	.	.	.	.
8r	.	8gn\	.	8r	.	4r	.
8F#\	.	8a\J	.	8ddn\	.	.	.
4Gn\	.	8b\L	.	4dd\	.	2r	.
.	.	8cc#\	.	.	.	.	.
8r	.	8b\	.	8r	.	.	.
8F#\	.	8a\J)	.	8dd\	.	.	.
=211	=211	=211	=211	=211	=211	=211	=211
*k[f#c#]	*k[f#c#]	*k[f#c#]	*k[f#c#]	*k[f#c#]	*k[f#c#]	*k[f#c#]	*k[f#c#]
4E\	.	(8gn\L	.	4ggn\	.	4r	.
.	.	8a\	.	.	.	.	.
8r	.	8gn\	.	4r	.	8r	.
8Dn\	.	8f#\J	.	.	.	8a/	.
4E\	.	8gn\L	.	2r	.	4a/	.
.	.	8e\	.	.	.	.	.
8r	.	8f#\	.	.	.	8r	.
8C#/	.	8e\J)	.	.	.	8a/	.
=212	=212	=212	=212	=212	=212	=212	=212
4D\	.	(8f#\L	.	4r	.	4ff#\	.
.	.	8g\	.	.	.	.	.
8r	.	8f#\	.	8r	.	4r	.
8C#/	.	8e\J)	.	8dd\	.	.	.
4BB/	.	(8d\L	.	4dd\	.	4gg\	.
.	.	8e\	.	.	.	.	.
8r	.	8d\	.	8r	.	8r	.
8AA/	.	8c#\J)	.	8dd\	.	8ff#\	.
=213	=213	=213	=213	=213	=213	=213	=213
4GG/	.	(8B/L	.	4bb\	.	4ee\	.
.	.	8cn/	.	.	.	.	.
8r	.	8B/	.	8r	.	8r	.
8FF#/	.	8A/J)	.	8cccn\	.	8dd#\	.
4GG/	.	(8B/L	.	4bb\	.	4ee\	.
.	.	8E/	.	.	.	.	.
8r	.	8B/	.	8r	.	8r	.
8GG#/	.	8E/J)	.	8bb\	.	8ddn\	.
=214	=214	=214	=214	=214	=214	=214	=214
4AA/	.	(8E/L	f	4aa\	.	4cc#\	.
.	.	8F#/	.	.	.	.	.
8r	f	8E/	.	8r	f	8r	f
8BB/	.	8D/J)	.	8ee\ 8gg#\	.	8b\	.
4C#/	.	(8E/L	.	4ee\ 4ggn\	.	4a/	.
.	.	8F#/	.	.	.	.	.
8r	.	8E/	.	8r	.	8r	.
8D\	.	8B/J)	.	8dd\ 8ffn\	.	8g#/	.
=215	=215	=215	=215	=215	=215	=215	=215
4E\	.	(8c#\L	.	4cc#\	.	4gn/	.
.	.	8d\	.	.	.	.	.
8r	.	8c#\	.	8r	.	8r	.
8GG/	.	8a\J)	.	8e/	.	8ee\	.
4FF#/	.	(8A/L	.	4d/	.	4aa\	.
.	.	8B/	.	.	.	.	.
8r	.	8A/	.	8r	.	8r	.
8EE/	.	8G/J)	.	8A/ 8a/	.	8cc#\	.
=216	=216	=216	=216	=216	=216	=216	=216
1DD [1AA	p	[1F#	p	[1A [1a	p	[2ff#\	p
.	.	.	.	.	.	(8ff#\L]	.
.	.	.	.	.	.	8ee\	.
.	.	.	.	.	.	8dd\	.
.	.	.	.	.	.	8cc#\J	.
=217	=217	=217	=217	=217	=217	=217	=217
1DD 1AA]	.	1F#]	.	1A] 1a]	.	8dd\L	.
.	.	.	.	.	.	8cc#\	.
.	.	.	.	.	.	8b\	.
.	.	.	.	.	.	8a\J	.
.	.	.	.	.	.	8g/L	.
.	.	.	.	.	.	8f#/	.
.	.	.	.	.	.	8e/	.
.	.	.	.	.	.	8d/J)	.
=218	=218	=218	=218	=218	=218	=218	=218
1EE [1AA	.	[1G	.	[1A [1a	.	(4.d/	.
.	.	.	.	.	.	8c#/)	.
.	.	.	.	.	.	2aa\	.
=219	=219	=219	=219	=219	=219	=219	=219
1EE 1AA]	.	1G]	.	1A] 1a]	.	2aa\	.
.	.	.	.	.	.	2aa\	.
=220	=220	=220	=220	=220	=220	=220	=220
[1DD [1AA	.	[2f#\	.	2A/ 2a/	.	(2aa\	.
.	.	(8f#\L]	p	[2f#/	p	2ddd\	p
.	.	8e\	.	.	.	.	.
.	.	8d\	.	.	.	.	.
.	.	8c#\J	.	.	.	.	.
=221	=221	=221	=221	=221	=221	=221	=221
1DD] 1AA]	p	8d\L	.	1A 1f#]	.	2fff#\	.
.	.	8c#\	.	.	.	.	.
.	.	8B\	.	.	.	.	.
.	.	8A\J	.	.	.	.	.
.	.	8G/L	.	.	.	2aaa\)	.
.	.	8F#/	.	.	.	.	.
.	.	8E/	.	.	.	.	.
.	.	8D/J)	.	.	.	.	.
=222	=222	=222	=222	=222	=222	=222	=222
[1EE [1AA	.	(4.D/	.	[1A [1g	.	(2aa\	.
.	.	8C#/)	.	.	.	.	.
.	.	2a\	.	.	.	2ccc#\	.
=223	=223	=223	=223	=223	=223	=223	=223
1EE] 1AA]	.	2a\	.	1A] 1g]	.	2eee\	.
.	.	2a\	.	.	.	2aaa\)	.
=224	=224	=224	=224	=224	=224	=224	=224
[1DD [1AA	p	[1A [1f#	p	[2ff#\	p	(2aa\	p
.	.	.	.	(8ff#\L]	.	2ddd\	.
.	.	.	.	8ee\	.	.	.
.	.	.	.	8dd\	.	.	.
.	.	.	.	8cc#\J	.	.	.
=225	=225	=225	=225	=225	=225	=225	=225
1DD] 1AA]	.	1A] 1f#]	.	8dd\L	.	2fff#\	.
.	.	.	.	8cc#\	.	.	.
.	.	.	.	8b\	.	.	.
.	.	.	.	8a\J	.	.	.
.	.	.	.	8g/L	.	2aaa\)	.
.	.	.	.	8f#/	.	.	.
.	.	.	.	8e/	.	.	.
.	.	.	.	8d/J)	.	.	.
=226	=226	=226	=226	=226	=226	=226	=226
[1EE [1AA	.	[1A [1g	.	(4.d/	.	[2gg\	.
.	.	.	.	8c#/)	.	.	.
.	.	.	.	2aa\	.	(8gg\L]	.
.	.	.	.	.	.	8ff#\	.
.	.	.	.	.	.	8ee\	.
.	.	.	.	.	.	8dd\J	.
=227	=227	=227	=227	=227	=227	=227	=227
1EE] 1AA]	.	1A] 1g]	.	2aa\	.	8cc#/L	.
.	.	.	.	.	.	8b/	.
.	.	.	.	.	.	8a/	.
.	.	.	.	.	.	8g/J	.
.	.	.	.	2aa\	.	8a/L	.
.	.	.	.	.	.	8g/	.
.	.	.	.	.	.	8f#/	.
.	.	.	.	.	.	8e/J)	.
=228	=228	=228	=228	=228	=228	=228	=228
(2FF#/	.	2A\ 2a\	.	2aa\	.	(4.e/	.
.	.	.	.	.	.	8d#/)	.
2FF#/)	.	2F#/ 2A/	.	2d#/	.	2cccn\	.
=229	=229	=229	=229	=229	=229	=229	=229
1F#	.	2F#/ 2A/	.	2d#/	.	2cccn\	.
.	.	2a\	.	2d#/	.	2ccc\	.
=230	=230	=230	=230	=230	=230	=230	=230
1B	.	2r	.	2r	.	(4.a/	.
.	.	.	.	.	.	8g#/)	.
.	.	2d\ 2fn\	.	2g#/	.	2ddd\	.
=231	=231	=231	=231	=231	=231	=231	=231
1fn	.	2B\ 2d\	.	2g#/	.	2ddd\	.
.	.	2B\ 2d\	.	2g#/	.	2ddd\	.
=232	=232	=232	=232	=232	=232	=232	=232
[1A	p	(2g\	p	(2b-\	p	(2eee\	p
.	.	4f#\	.	4a/	.	4fff#\	.
.	.	4e\)	.	4gn/)	.	4ggg\	.
=233	=233	=233	=233	=233	=233	=233	=233
1A]	.	2d\	.	2f#/	.	2aaa\)	.
.	.	(2e\	.	(2g/	.	(2cc#\	.
=234	=234	=234	=234	=234	=234	=234	=234
[1d	.	2f#\	.	2a/	.	2ccn\	.
.	.	2g\	.	2d/	.	2b\	.
=235	=235	=235	=235	=235	=235	=235	=235
1d]	.	2e\	.	2g/	.	2cc#\	.
.	.	2a\	.	2f#/	.	2dd\	.
=236	=236	=236	=236	=236	=236	=236	=236
(2.d\	.	2f#\	.	2a/	.	2ccn\	.
.	.	4d\	.	4g/	.	[2b\)	.
[4d#\)	.	4a\)	.	4f#/)	.	.	.
=237	=237	=237	=237	=237	=237	=237	=237
1d#]	.	4r	.	1f# 1a	.	1b_	.
.	.	(8B\L	.	.	.	.	.
.	.	8d#\J	.	.	.	.	.
.	.	4f#'\)	.	.	.	.	.
.	.	(8f#\L	.	.	.	.	.
.	.	8B\J	.	.	.	.	.
=238	=238	=238	=238	=238	=238	=238	=238
[1e	p	4e'\)	p	(2g/	p	2b\]	p
.	.	4r	.	.	.	.	.
.	.	(2g\	.	2e/	.	(2b\	.
=239	=239	=239	=239	=239	=239	=239	=239
1e]	.	2f#\	.	2a/	.	2dd#\	.
.	.	2b\)	.	2g/)	.	2ee\	.
=240	=240	=240	=240	=240	=240	=240	=240
[1fn	.	(2b\	.	1g#	.	2ddn\	.
.	.	4g#\	.	.	.	[2cc#\)	.
.	.	4c#\)	.	.	.	.	.
=241	=241	=241	=241	=241	=241	=241	=241
1f]	.	4r	.	[1c# [1g#	.	2.cc#\]	.
.	.	(8C#/L	.	.	.	.	.
.	.	8E#/J	.	.	.	.	.
.	.	4G#'/)	.	.	.	.	.
.	.	(8G#/L	.	.	.	4gg#\	.
.	.	8C#/J)	.	.	.	.	.
=242	=242	=242	=242	=242	=242	=242	=242
[1CC# [1GG#	p	[2fn\	p	2c#/] 2g#/]	p	(2gg#\	p
.	.	(8f\L]	.	[2G#/ [2fn/	.	2ccc#\	.
.	.	8d#\	.	.	.	.	.
.	.	8c#\	.	.	.	.	.
.	.	8B#\J	.	.	.	.	.
=243	=243	=243	=243	=243	=243	=243	=243
1CC#] 1GG#]	.	8c#/L	.	1G#] 1f]	.	2eee#\	.
.	.	8B#/	.	.	.	.	.
.	.	8A#/	.	.	.	.	.
.	.	8G#/J	.	.	.	.	.
.	.	8F#/L	.	.	.	2ggg#\)	.
.	.	8E#/	.	.	.	.	.
.	.	8D#/	.	.	.	.	.
.	.	8C#/J)	.	.	.	.	.
=244	=244	=244	=244	=244	=244	=244	=244
[1DD# [1GG#	.	(4.C#/	.	[1G# [1f#	.	(2gg#\	.
.	.	8BB#/)	.	.	.	.	.
.	.	2g#\	.	.	.	2bb#\	.
=245	=245	=245	=245	=245	=245	=245	=245
1DD#] 1GG#]	.	2g#\	.	1G#] 1f#]	.	2ddd#\	.
.	.	2g#\	.	.	.	2ggg#\)	.
=246	=246	=246	=246	=246	=246	=246	=246
(1CC# 1GG#	p	(8g#\L	p	2G#/	p	(2ee#\	p
.	.	8f#\	.	.	.	.	.
.	.	8e#\	.	.	.	.	.
.	.	8d#\J	.	.	.	.	.
.	.	8fn\L	.	2c#/	.	(8ee#\L)	.
.	.	8d#\	.	.	.	8dd#\	.
.	.	8c#\	.	.	.	8cc#\	.
.	.	8B#\J	.	.	.	8b#\J	.
=247	=247	=247	=247	=247	=247	=247	=247
1CC#) 1GG#	.	8c#/L	.	2e#/	.	8cc#/L	.
.	.	8B#/	.	.	.	8b#/	.
.	.	8A#/	.	.	.	8a#/	.
.	.	8G#/J	.	.	.	8g#/J	.
.	.	8F#/L	.	2g#/	.	8f#/L	.
.	.	8E#/	.	.	.	8e#/	.
.	.	8D#/	.	.	.	8d#/	.
.	.	8C#/J)	.	.	.	8c#/J)	.
=248	=248	=248	=248	=248	=248	=248	=248
*k[f#c#g#d#]	*k[f#c#g#d#]	*k[f#c#g#d#]	*k[f#c#g#d#]	*k[f#c#g#d#]	*k[f#c#g#d#]	*k[f#c#g#d#]	*k[f#c#g#d#]
[1DD# [1GG#	.	(4.C#/	.	2G#/	.	(4.c#/	.
.	.	8BB#/)	.	.	.	8B#/)	.
.	.	2g#\	.	[2B#/	.	2gg#\	.
=249	=249	=249	=249	=249	=249	=249	=249
1DD#] 1GG#]	.	2g#\	.	2B#/]	.	2gg#\	.
.	.	2g#\	.	2G#/ 2f#/	.	2gg#\	.
=250	=250	=250	=250	=250	=250	=250	=250
(2EE#/ 2GG#/	.	2r	.	2r	.	(4.d#/	.
.	.	.	.	.	.	8c##/)	.
&(2EE#/&)) 2GG#/	.	2G#/	.	(2dn/	.	2bb\	.
=251	=251	=251	=251	=251	=251	=251	=251
1E#	.	2G#/	.	2b\	.	2bb\	.
.	.	2G#/	.	2dn/)	.	2bb\	.
=252	=252	=252	=252	=252	=252	=252	=252
1A#	.	1c#	.	1e	.	(4.g#/	.
.	.	.	.	.	.	8f##/)	.
.	.	.	.	.	.	2ccc#\	.
=253	=253	=253	=253	=253	=253	=253	=253
1e	.	1f##	.	1a#	.	2ccc#\	.
.	.	.	.	.	.	2ccc#\	.
=254	=254	=254	=254	=254	=254	=254	=254
2a\	p	(2f#\	p	(2b#\	p	(2ddd#\	p
[2g#\	.	2e#\)	.	4cc#\	.	4eee#\	.
.	.	.	.	4dd#\	.	4fff#\	.
=255	=255	=255	=255	=255	=255	=255	=255
2g#\]	.	&(2e#\&)	.	2ee#\)	.	2ggg#\)	.
2G#\	.	(2d#\	.	(2f#/	.	(2b#\	.
=256	=256	=256	=256	=256	=256	=256	=256
[1c#	.	2e#\	.	2g#/	.	2bn\	.
.	.	2c#\	.	[2f#/	.	2a#/	.
=257	=257	=257	=257	=257	=257	=257	=257
1c#_	.	2d#\	.	2f#/]	.	2b#\	.
.	.	[2g#\)	.	(2e#/)	.	2cc#\)	.
=258	=258	=258	=258	=258	=258	=258	=258
(1c#]	.	(2g#\]	.	(2e#/)	.	(2bn\	.
.	.	2c#\	.	(2f#/)	.	2a/	.
=259	=259	=259	=259	=259	=259	=259	=259
2B#\	.	2d#\	.	(2f#/)	.	1g#)	.
2c#\)	.	2c#\)	.	2en/)	.	.	.
=260	=260	=260	=260	=260	=260	=260	=260
(2BB#/	.	(2d#\	.	(2A/	.	(2f#/	.
2C#/	.	2c#\	.	2G#/	.	[2e/)	.
=261	=261	=261	=261	=261	=261	=261	=261
2FF##/	.	2A#/	.	2c#/	.	(2e/]	.
2GG#/)	.	2D#/)	.	2B#/)	.	2d#/)	.
=262	=262	=262	=262	=262	=262	=262	=262
4GG#/	.	4D#/	.	4B#/	.	4d#/	.
8r	.	4r	.	8r	.	8r	.
8AA/	.	.	.	8B#/	.	8d#/	.
4GG#/	pp	4r	.	4B#/	pp	4d#/	pp
8r	.	8r	pp	8r	.	8r	.
8FF#/	.	8An/	.	8B#/	.	8d#/	.
=263	=263	=263	=263	=263	=263	=263	=263
4EE/	.	4G#/	.	4c#/	.	4g#/	.
8r	.	8r	.	8r	.	8r	.
8DD#/	.	8F#/	.	8f#/	.	8dd#\	.
4CC#/	.	4F#/	.	4a/	.	4dd#\	.
8r	.	8r	.	8r	.	8r	.
8BBB#/	.	8F#/	.	8g#/	.	8dd#\	.
=264	=264	=264	=264	=264	=264	=264	=264
4CC#/	pp	4E/	pp	4g#/	pp	4ee\	pp
(8CC#/L	.	8r	.	8r	.	8r	.
8EE/J	.	8E/	.	8g#/	.	8ccc#\	.
4GG#'/)	.	4E/	.	4g#/	.	4ccc#\	.
(8AA/L	.	4E/	.	8r	.	8r	.
8CC#/J	.	.	.	8g#/	.	8ccc#\	.
=265	=265	=265	=265	=265	=265	=265	=265
4GG#/)	.	4E/	.	4g#/	.	4ee\	.
4r	.	(8C#/L	.	8r	.	8r	.
.	.	8E/J	.	8ee\	.	8ccc#\	.
2r	.	4G#'/)	.	4ee\	.	4ccc#\	.
.	.	(8A/L	.	8r	.	8r	.
.	.	8C#/J	.	8ee\	.	8ccc#\	.
=266	=266	=266	=266	=266	=266	=266	=266
4r	.	4BB#/)	.	4dd#\	.	4ff#\	.
(8BBB#/L	.	8r	.	8r	.	8r	.
8DD#/J	.	8g#\	.	8ff#\	.	8ddd#\	.
4GG#'/)	.	4g#\	.	4ff#\	.	4ddd#\	.
(8AA/L	.	8r	.	8r	.	8r	.
8BBB#/J	.	8g#\	.	8ff#\	.	8ddd#\	.
=267	=267	=267	=267	=267	=267	=267	=267
4GG#/)	.	4g#\	.	4dd#\	.	4ff#\	.
*clefC4	*clefC4	*	*	*	*	*	*
8r	.	(8BB#/L	.	8r	.	8r	.
8g#\	.	8D#/J	.	8ff#\	.	8ddd#\	.
4g#\	.	4G#'/)	.	4ff#\	.	4ddd#\	.
8r	.	(8A/L	.	8r	.	8r	.
8g#\	.	8BB#/J	.	8ff#\	.	8ddd#\	.
=268	=268	=268	=268	=268	=268	=268	=268
4g#\	.	4C#/)	.	4g#\ 4ee\	.	4eee\	.
8r	.	(8E/L	.	(8e/L	.	4r	.
8g#\	.	8G#/J	.	8g#/J	.	.	.
4g#\	.	4c#'\)	.	4cc#'\)	.	2r	.
8r	.	(8e\L	.	(8ee\L	.	.	.
8g#\	.	8g#\J	.	8gg#\J	.	.	.
=269	=269	=269	=269	=269	=269	=269	=269
4g#\	.	4cc#'\)	.	4ccc#'\)	.	4r	.
8r	.	8r	.	8r	.	(8cc#\L	.
8g#\	.	8G#/	.	8c#/ 8e/	.	8ee\J	.
4g#\	.	4G#/	.	4c#/ 4e/	.	4gg#'\)	.
8r	.	8r	.	8r	.	(8aa\L	.
8g#\	.	8G#/	.	8c#/ 8e/	.	8cc#\J	.
=270	=270	=270	=270	=270	=270	=270	=270
4g#\	.	4G#/	.	4d#/ 4f#/	.	4b#'\)	.
8r	.	(8BB#/L	.	(8B#/L	.	4r	.
8g#\	.	8D#/J	.	8d#/J	.	.	.
4g#\	.	4G#'/)	.	4g#'/)	.	2r	.
8r	.	(8B#\L	.	(8b#\L	.	.	.
8g#\	.	8d#\J	.	8dd#\J	.	.	.
=271	=271	=271	=271	=271	=271	=271	=271
4g#\	.	4f#'\)	.	4ff#'\)	.	4r	.
8r	.	8r	.	8r	.	(8b#\L	.
8g#\	.	8G#/	.	8d#/ 8f#/	.	8dd#\J	.
4g#\	.	4G#/	.	4d#/ 4f#/	.	4gg#'\)	.
8r	.	8r	.	8r	.	(8aa\L	.
8g#\	.	8G#/	.	8d#/ 8f#/	.	8b#\J	.
=272	=272	=272	=272	=272	=272	=272	=272
4g#\	f	4G#/	f	4c#/ 4e/	f	4cc#'\)	f
*clefF4	*clefF4	*	*	*	*	*	*
(8CC#/L	.	(8C#/L	.	(8c#/L	.	(8c#/L	.
8EE/J	.	8E/J	.	8e/J	.	8e/J	.
4GG#'/)	.	4G#'/)	.	4g#'/)	.	4g#'/)	.
4r	.	(8A/L	.	(8a/L	.	(8a/L	.
.	.	8C#/J	.	8c#/J	.	8c#/J	.
=273	=273	=273	=273	=273	=273	=273	=273
4r	.	4D#'/)	.	4d#'/)	.	4d#'/)	.
(8DD#/L	.	(8D#/L	.	(8d#/L	.	(8d#/L	.
8FF#/J	.	8F#/J	.	8f#/J	.	8f#/J	.
4AA'/)	.	4A'/)	.	4a'/)	.	4a'/)	.
4r	.	(8B#/L	.	(8b#/L	.	(8b#/L	.
.	.	8D#/J	.	8d#/J	.	8d#/J	.
=274	=274	=274	=274	=274	=274	=274	=274
4r	.	4E'/)	.	4e'/)	.	4e'/)	.
4EE/	.	(8c#/L	.	(8cc#/L	.	(8cc#/L	.
.	.	8E/J	.	8e/J	.	8e/J	.
4r	.	4F#'/)	.	4f#'/)	.	4f#'/)	.
4FF#/	.	(8c#/L	.	(8cc#/L	.	(8cc#/L	.
.	.	8F#/J	.	8f#/J	.	8f#/J	.
=275	=275	=275	=275	=275	=275	=275	=275
4r	.	4G#'/)	.	4g#'/)	.	4g#'/)	.
4GG#/	.	(8c#/L	.	(8c#/L	.	(8cc#/L	.
.	.	8G#/J	.	8G#/J	.	8g#/J	.
4r	.	4A'/)	.	4A'/)	.	4a'/)	.
4AA/	.	(8C#/L	.	(8c#/L	.	(8cc#\L	.
.	.	8F#/J	.	8f#/J	.	8ff#\J	.
=276	=276	=276	=276	=276	=276	=276	=276
4r	.	4BB#'/)	.	4B#'/)	.	4b#'\)	.
4BB#/	.	(8D#/L	.	(8d#/L	.	(8dd#\L	.
.	.	8G#/J	.	8g#/J	.	8gg#\J	.
4r	.	4C#'/)	.	4c#'/)	.	4cc#'\)	.
4C#/	.	(8E/L	.	(8e/L	.	(8ee\L	.
.	.	8G#/J	.	8g#/J	.	8gg#\J	.
=277	=277	=277	=277	=277	=277	=277	=277
4r	.	4D#'/)	.	4d#'/)	.	4dd#'\)	.
4D#\	.	(8F#/L	.	(8f#/L	.	(8ff#\L	.
.	.	8G#/J)	.	8g#/J)	.	8gg#\J)	.
4E\	.	4G#/	.	4g#/	.	(4gg#\	.
*clefC4	*clefC4	*	*	*	*	*	*
(4e\	.	(4e\	.	(4g#/	.	4ccc#\	.
=278	=278	=278	=278	=278	=278	=278	=278
1d#)	p	1f#)	p	1b#)	p	2bb#\	p
.	.	.	.	.	.	2aa\)	.
=279	=279	=279	=279	=279	=279	=279	=279
2.e\	.	2.g#\	.	2.cc#\	.	2.gg#\	.
(4e\	p	[4g#\	p	(4cc#\	p	(4ccc#\	p
=280	=280	=280	=280	=280	=280	=280	=280
4f#\	.	1g#_	.	4dd#\	.	4bb#\	.
4e\	.	.	.	4cc#\	.	4ccc#\	.
4d#\	.	.	.	4b#\	.	4ddd#\	.
4c#\)	.	.	.	4cc#\	.	4eee\	.
=281	=281	=281	=281	=281	=281	=281	=281
[1g#	.	(4g#\]	.	4b#\	.	4ddd#\)	.
.	.	4e\	.	4gg#\	.	4r	.
.	.	4d#\	.	4ff#\	.	4r	.
.	.	4e\)	.	4ee\)	.	(4ccc#\	.
=282	=282	=282	=282	=282	=282	=282	=282
1g#_	.	1f#	.	(2dd#\	.	2bb#\	.
.	.	.	.	2b#\)	.	2aa\	.
=283	=283	=283	=283	=283	=283	=283	=283
1g#_	p	(2e\	p	(2cc#\	p	2.gg#\)	p
.	.	4d#\	.	4ff#\	.	.	.
.	.	4c#\	.	4ee\)	.	(4ccc#\	.
=284	=284	=284	=284	=284	=284	=284	=284
(2.g#\]	.	4G#/	.	(4ee\	.	4eee\	.
.	.	4B#/	.	4ff#\	.	4ddd#\	.
.	.	4c#\	.	4ee\	.	4ccc#\	.
4f#\	.	[4g#\)	.	4dd#\	.	4bb#\	.
=285	=285	=285	=285	=285	=285	=285	=285
4e\	.	4g#\]	.	4cc#\	.	4ccc#\)	.
4d#\	.	4f#\	.	4b#\	.	4r	.
4c#\)	.	4e\	.	4cc#\)	.	2r	.
*clefF4	*clefF4	*	*	*	*	*	*
(4CC#/ 4C#/	.	(4C#/ 4c#/	.	4r	.	.	.
=286	=286	=286	=286	=286	=286	=286	=286
*^	*	*^	*	*	*	*	*
2BB#/	1BBB#	.	2B#/	1BB#	.	2r	.	2r	.
2AA/	.	.	2A/	.	.	4r	.	4r	.
.	.	.	.	.	.	(4f#/	.	(4f#/	.
*v	*v	*	*	*	*	*	*	*	*
*	*	*v	*v	*	*	*	*	*
=287	=287	=287	=287	=287	=287	=287	=287
&(4BBB#/&)) 4GG#/	.	&(4BB#/&)) 4G#/	.	2B#/	.	2b#\	.
4r	.	4r	.	.	.	.	.
4r	.	4r	.	4c#/)	.	4cc#\)	.
(4CC#/ 4C#/	.	(4C#/ 4c#/	.	4r	p	4r	p
=288	=288	=288	=288	=288	=288	=288	=288
*^	*	*^	*	*	*	*	*
2BB#/	1BBB#	.	2B#/	1BB#	.	2r	.	2r	.
2AA/	.	.	2A/	.	.	4r	.	4r	.
.	.	.	.	.	.	(4f#/	.	(4ff#\	.
*v	*v	*	*	*	*	*	*	*	*
*	*	*v	*v	*	*	*	*	*
=289	=289	=289	=289	=289	=289	=289	=289
&(4BBB#/&)) 4GG#/	.	&(4BB#/&))	.	2b#\	.	2bb#\	.
4r	.	4r	.	.	.	.	.
4r	.	4r	.	4cc#\)	p	4ccc#\)	p
(4GG#/	ff	(4G#/	ff	(4g#/	ff	(4gg#\	ff
=290	=290	=290	=290	=290	=290	=290	=290
2BB#/	.	2B#/	.	2b#\	.	2bb#\	.
4C#/)	.	4c#\)	.	4cc#\)	.	4ccc#\)	.
(4EE/	.	(4E/	.	(4e/	.	(4ee\	.
=291	=291	=291	=291	=291	=291	=291	=291
2GG#/	.	2G#/	.	2g#/	.	2gg#\	.
4AA/)	.	4A/)	.	4a/)	.	4aa\)	.
(4CC#/	.	(4C#/	.	(4c#/	.	(4cc#\	.
=292	=292	=292	=292	=292	=292	=292	=292
2EE#/	.	2E#/	.	2e#/	.	2ee#\	.
4FF#/)	.	4F#/)	.	4f#/)	.	4ff#\	.
8r	.	8r	.	8r	.	8r	.
8BBB#'/	.	8BB#'/	.	8B#'/	.	8b#'\)	.
=293	=293	=293	=293	=293	=293	=293	=293
4DD#'/	.	4D#'/	.	4d#'/	.	4dd#'\	.
8r	.	8r	.	8r	.	8r	.
8EEn'/	.	8En'/	.	8en'/	.	8een'\	.
4FF#'/	.	4F#'/	.	4f#'/	.	4ff#'\	.
8r	.	8r	.	8r	.	8r	.
8CC#/	.	8C#/	.	8c#/	.	8cc#\	.
=294	=294	=294	=294	=294	=294	=294	=294
4EE/	.	4E/	.	4e/	.	4ee\	.
8r	.	8r	.	8r	.	8r	.
8FF#/	.	8F#/	.	8f#/	.	8ff#\	.
4GG#/	.	4G#/	.	4g#/	.	4gg#\	.
8r	.	8r	.	8r	.	8r	.
8BBB#/	.	8BB#/	.	8B#/	.	8b#\	.
=295	=295	=295	=295	=295	=295	=295	=295
4DD#/	.	4D#/	.	4d#/	.	4dd#\	.
8r	.	8r	.	8r	.	8r	.
8EE/	.	8E/	.	8e/	.	8ee\	.
4FF#/	.	4F#/	.	4f#/	.	4ff#\	.
8r	.	8r	.	8r	.	8r	.
8CC#/	.	8C#/	.	8c#/	.	8cc#\	.
=296	=296	=296	=296	=296	=296	=296	=296
4EE/	.	4E/	.	4e/	.	4ee\	.
8r	.	8r	.	8r	.	8r	.
8FF#/	.	8F#/	.	8f#/	.	8ff#\	.
4GG#/	.	4G#/	.	4g#/	.	4gg#\	.
8r	.	8r	.	8r	.	8r	.
8BBB#/	.	8BB#/	.	8B#/	.	8b#\	.
=297	=297	=297	=297	=297	=297	=297	=297
4DD#/	.	4D#/	.	4d#/	.	4dd#\	.
8r	.	8r	.	8r	.	8r	.
8EE/	.	8E/	.	8e/	.	8ee\	.
4FF#/	.	4F#/	.	4f#/	.	4ff#\	.
8r	.	8r	.	8r	.	8r	.
8CC#/	.	8C#/	.	8c#/	.	8cc#\	.
=298	=298	=298	=298	=298	=298	=298	=298
4EE/	.	4E/	.	4e/	.	4ee\	.
8r	.	8r	.	8r	.	8r	.
8FF#/	.	8F#/	.	8f#/	.	8ff#\	.
4GG#/	.	4G#/	.	4g#/	.	4gg#\	.
8r	.	8r	.	8r	.	8r	.
8AA/	.	8A/	.	8a/	.	8ccc#\	.
=299	=299	=299	=299	=299	=299	=299	=299
4FF#/	.	4A/	.	4a/	.	4dd#\	.
8r	.	8r	.	8r	.	8r	.
8FF#/	.	8F#/	.	8a/	.	8ccc#\	.
4FF#/	.	4d#\	.	4g#/	.	4dd#\	.
8r	.	8r	.	8r	.	8r	.
8FF#/	.	8d#\	.	8g#/	.	8bb#\	.
=300	=300	=300	=300	=300	=300	=300	=300
4EE/	.	4c#\	.	4g#/	.	4ee\	.
8r	.	8r	.	8r	.	8r	.
8EE/	.	8c#\	.	8g#/	.	8ccc#\	.
4AA/	.	4c#\	.	4e/	.	4ee\	.
8r	.	8r	.	8r	.	8r	.
8AA/	.	8c#\	.	8a/	.	8ccc#\	.
=301	=301	=301	=301	=301	=301	=301	=301
4FF#/	.	4d#\	.	4f#/ 4a/	.	4dd#\	.
8r	.	8r	.	8r	.	8r	.
8FF#/	.	8d#\	.	8f#/ 8a/	.	8ccc#\	.
4GG#/	.	4d#\	.	4f#/	.	4dd#\	.
8r	.	8r	.	8r	.	8r	.
8GG#/	.	8d#\	.	8g#/	.	8bb#\	.
=302	=302	=302	=302	=302	=302	=302	=302
4CC#/	.	4e\	.	4g#/	.	4ccc#\	.
8CC#/L	.	8C#/L	.	8c#/L	.	(8c#/L	.
8EE/J	.	8E/J	.	8e/J	.	8e/J	.
4GG#'/	.	4G#'/	.	4g#'/	.	4g#'/)	.
8AA/L	f	8A/L	f	8a/L	f	(8a/L	f
8CC#/J	.	8C#/J	.	8c#/J	.	8c#/J	.
=303	=303	=303	=303	=303	=303	=303	=303
4DD#'/	.	4D#'/	.	4d#'/	.	4d#'/)	.
4r	.	4r	.	4r	.	4r	.
2r	.	2r	.	2r	.	2r	.
=304	=304	=304	=304	=304	=304	=304	=304
4r	.	4r	.	4r	.	4r	.
(8DD#/L	.	(8D#/L	.	(8d#/L	.	(8d#/L	.
8FF#/J	.	8F#/J	.	8f#/J	.	8f#/J	.
4AA'/)	.	4A'/)	.	4a'/)	.	4a'/)	.
(8BB#/L	.	(8B#/L	.	(8b#/L	.	(8b#/L	.
8DD#/J	.	8D#/J	.	8d#/J	.	8d#/J	.
=305	=305	=305	=305	=305	=305	=305	=305
4EE'/)	.	4E'/)	.	4e'/)	.	4e'/)	.
(8EE/L	.	(8E/L	.	(8e/L	.	(8e/L	.
8GG#/J	.	8G#/J	.	8g#/J	.	8g#/J	.
4C#'/)	.	4c#'\)	.	4cc#'\)	.	4cc#'\)	.
(4CC#/	.	[4F#/	.	[4A/	.	(8f#/L	.
.	.	.	.	.	.	8a/J	.
=306	=306	=306	=306	=306	=306	=306	=306
4C#/)	.	4F#/]	.	4A/]	.	4dd#'\)	f
(4CC#/	.	(4G#/	.	(4B/	.	(8g#/L	.
.	.	.	.	.	.	8b/J	.
4C#/)	.	4G#/)	.	4B/)	.	4ee#'\)	.
(4FF#/	.	[4A/	.	[4c#/	.	(8a\L	f
.	.	.	.	.	.	8cc#\J	.
=307	=307	=307	=307	=307	=307	=307	=307
4F#\)	f	4A/]	.	4c#/]	.	4ff#'\)	f
(4FF#/	.	(4c#\	.	(4a/	.	(8a\L	.
.	.	.	.	.	.	8cc#\J	.
4F#\)	f	4c#\)	.	4a/)	.	4aa'\)	f
(4GG#/	.	[4c#\	.	[4e/	.	(8en/L	.
.	.	.	.	.	.	8cc#/J	.
=308	=308	=308	=308	=308	=308	=308	=308
4G#\)	f	4c#\]	.	4e/]	.	4gg#'\)	f
(4GG#/	.	(4B#/	.	(4d#/	.	(8g#\L	.
.	.	.	.	.	.	8dd#\J	.
4G#\)	f	4B#/)	.	4d#/)	.	4bb#'\)	f
(4CC#/	.	[4c#\	.	[4e/	.	(8g#\L	.
.	.	.	.	.	.	8ee\J	.
=309	=309	=309	=309	=309	=309	=309	=309
4C#/)	.	4c#\]	.	4e/]	.	4ccc#'\)	.
(4c#\	.	(4E/	.	(4G#/	.	(8e/L	.
.	.	.	.	.	.	8g#/J	.
4C#/)	.	4E/)	.	4G#/)	.	4cc#'\)	.
(4c#\	.	[4F#/	.	[4A/	.	(8f#/L	.
.	.	.	.	.	.	8a/J	.
=310	=310	=310	=310	=310	=310	=310	=310
4C#/)	.	4F#/]	.	4A/]	.	4dd#'\)	.
(4C#/	.	(4G#/	.	(4B/	.	(8g#/L	.
.	.	.	.	.	.	8b/J	.
4CC#/)	.	4G#/)	.	4B/)	.	4ee#'\)	.
(4C#/	.	[4A/	.	[4c#/	.	(8a\L	.
.	.	.	.	.	.	8cc#\J	.
=311	=311	=311	=311	=311	=311	=311	=311
4FF#/)	.	4A/]	.	4c#/]	.	4ff#'\)	.
(4A\	.	(4c#\	.	(4a/	.	(8f#/L	.
.	.	.	.	.	.	8cc#/J	.
4F#\)	.	4c#\)	.	4a/)	.	4aa'\)	.
(4G#\	.	[4c#\	.	[4e/	.	(8en/L	.
.	.	.	.	.	.	8cc#/J	.
=312	=312	=312	=312	=312	=312	=312	=312
4GG#/)	.	4c#\]	.	4e/]	.	4gg#'\)	.
(4G#\	.	(4d#\	.	(4b#\	.	(8g#\L	.
.	.	.	.	.	.	8dd#\J	.
4GG#/)	.	4d#\)	.	4b#\)	.	4bb#'\)	.
(4c#\	.	[4c#\	.	[4cc#\	.	4ee'\	.
=313	=313	=313	=313	=313	=313	=313	=313
[1C#)	ff	4c#\]	ff	4cc#\]	ff	[1ee [1eee	ff
.	.	4r	.	4r	.	.	.
.	.	4c#\	.	2r	.	.	.
.	.	8r	.	.	.	.	.
.	.	8d#\	.	.	.	.	.
=314	=314	=314	=314	=314	=314	=314	=314
1C#]	.	4e\	.	1r	.	1ee] 1eee]	.
.	.	8r	.	.	.	.	.
.	.	8f#\	.	.	.	.	.
.	.	4g#\	.	.	.	.	.
.	.	8r	.	.	.	.	.
.	.	8a\	.	.	.	.	.
=315	=315	=315	=315	=315	=315	=315	=315
1BB	ff	4b\	.	2r	.	1dd# 1ddd#	ff
.	.	4r	.	.	.	.	.
.	.	2r	.	4cc#\	.	.	.
.	.	.	.	8r	.	.	.
.	.	.	.	8dd#\	.	.	.
=316	=316	=316	=316	=316	=316	=316	=316
1AA	ff	1r	.	4ee\	.	1cc# 1ccc#	ff
.	.	.	.	8r	.	.	.
.	.	.	.	8ff#\	.	.	.
.	.	.	.	4gg#\	.	.	.
.	.	.	.	8r	.	.	.
.	.	.	.	8aa\	.	.	.
=317	=317	=317	=317	=317	=317	=317	=317
1GG#	ff	2r	.	4bb\	.	1b 1bb	ff
.	.	.	.	4r	.	.	.
.	.	4A/	.	4a/	.	.	.
.	.	8r	.	8r	.	.	.
.	.	8B/	.	8b\	.	.	.
=318	=318	=318	=318	=318	=318	=318	=318
1FF#	ff	4c#\	.	4cc#\	.	1a 1aa	ff
.	.	8r	.	8r	.	.	.
.	.	8d#\	.	8dd#\	.	.	.
.	.	4e\	.	4ee\	.	.	.
.	.	8r	.	8r	.	.	.
.	.	8f#\	.	8ff#\	.	.	.
=319	=319	=319	=319	=319	=319	=319	=319
4EE/	.	4g#\	.	4gg#\	.	4gg#\	.
4r	.	8r	.	8r	.	4r	.
.	.	8c#\	.	8cc#\	.	.	.
4FF#/	.	4D#/	.	4d#/	.	4aa\	.
4r	.	8r	.	8r	.	4r	.
.	.	8c#\	.	8cc#\	.	.	.
=320	=320	=320	=320	=320	=320	=320	=320
4GG#/	.	4c#\	.	4cc#\	.	4ee\	.
4r	.	8r	.	8r	.	4r	.
.	.	8C#/	.	8c#/	.	.	.
4GG#/	.	4BB#/	.	4B#/	.	4dd#\	.
4r	.	8r	.	4r	.	4r	.
.	.	8B#/	.	.	.	.	.
=321	=321	=321	=321	=321	=321	=321	=321
[1c#	ff	[1e	ff	1r	.	2r	.
.	.	.	.	.	.	4ee\	.
.	.	.	.	.	.	8r	.
.	.	.	.	.	.	8ff#\	.
=322	=322	=322	=322	=322	=322	=322	=322
1c#]	.	1e]	.	1r	.	4gg#\	.
.	.	.	.	.	.	8r	.
.	.	.	.	.	.	8aa\	.
.	.	.	.	.	.	4bb\	.
.	.	.	.	.	.	8r	.
.	.	.	.	.	.	8ccc#\	.
=323	=323	=323	=323	=323	=323	=323	=323
1B	f	1d#	f	2r	.	4ddd#\	.
.	.	.	.	.	.	4r	.
.	.	.	.	4c#/	.	4a/	.
.	.	.	.	8r	.	8r	.
.	.	.	.	8d#/	.	8g#/	.
=324	=324	=324	=324	=324	=324	=324	=324
1A	f	1c#	f	4e/	.	4f#/	.
.	.	.	.	8r	.	8r	.
.	.	.	.	8f#/	.	8e/	.
.	.	.	.	4g#/	.	4d#/	.
.	.	.	.	8r	.	8r	.
.	.	.	.	8a/	.	8c#/	.
=325	=325	=325	=325	=325	=325	=325	=325
1G#	f	1B	f	4b\	.	4G#'/	.
.	.	.	.	4r	.	4r	.
.	.	.	.	4a/	.	4aa\	.
.	.	.	.	8r	.	8r	.
.	.	.	.	8b\	.	8bb\	.
=326	=326	=326	=326	=326	=326	=326	=326
1F#	f	1A	f	4cc#\	.	4ccc#\	.
.	.	.	.	8r	.	8r	.
.	.	.	.	8dd#\	.	8ddd#\	.
.	.	.	.	4ee\	.	4eee\	.
.	.	.	.	8r	.	8r	.
.	.	.	.	8ff#\	.	8fff#\	.
=327	=327	=327	=327	=327	=327	=327	=327
4E\	.	4G#/	.	4gg#\	.	4ggg#\	.
4r	.	8r	.	8r	.	4r	.
.	.	8c#\	.	8cc#\	.	.	.
4FF#/	.	4D#/	.	4d#/	.	4aaa\	.
4r	.	8r	.	8r	.	4r	.
.	.	8c#\	.	8cc#\	.	.	.
=328	=328	=328	=328	=328	=328	=328	=328
4GG#/	.	4c#\	.	4cc#\	.	4ee\	.
8r	.	8r	.	8r	.	4r	.
8G#\	.	8e\	.	8c#/	.	.	.
4F#\	.	4a\	.	4A/	.	4ddn\	.
8r	.	8r	.	8r	.	4r	.
8FF#/	.	8dn\	.	8A/	.	.	.
=329	=329	=329	=329	=329	=329	=329	=329
8DDn/L	pp	8Dn/L	pp	8dn/L	pp	8ddn/L	pp
8DD/	.	8D/	.	8d/	.	8dn/	.
8DD/	.	8D/	.	8d/	.	8e/	.
8DD/J	.	8D/J	.	8d/J	.	8f#/J	.
8DD/L	.	8D/L	.	8d/L	.	8gn/L	.
8DD/	.	8D/	.	8d/	.	8a/	.
8DD/	.	8D/	.	8d/	.	8b/	.
8DD/J	.	8D/J	.	8d/J	.	8cc#/J	.
=330	=330	=330	=330	=330	=330	=330	=330
8DDn/L	.	8Dn/L	.	8dn/L	.	8ddn\L	.
8DD/	.	8D/	.	8d/	.	8ee\	.
8DD/	.	8D/	.	8d/	.	8ff#\	.
8DD/J	.	8D/J	.	8d/J	.	8ggn\J	.
8DD/L	.	8D/L	.	8d/L	.	8aa\L	.
8DD/	.	8D/	.	8d/	.	8bb\	.
8DD/	.	8D/	.	8d/	.	8ccc#\	.
8DD/J	.	8D/J	.	8d/J	.	8dddn\J	.
=331	=331	=331	=331	=331	=331	=331	=331
4DDn'/	.	4Dn'/	.	4dn'/	.	4dddn'\	.
4BBB#'/	.	4BB#'/	.	4B#'/	.	4bb#'\	.
4CC#'/	.	4C#'/	.	4c#'/	.	4ccc#'\	.
4GG#'/	.	4G#'/	.	4Bn'/	.	4ddd#'\	.
=332	=332	=332	=332	=332	=332	=332	=332
4C#'/	f	4c#'\	f	4c#'/	.	4eee'\	f
4GG#'/	.	4G#'/	.	4c#'/	f	4ggg#'\	.
4CC#'/	.	4C#'/	.	4c#'/	.	4cccc#'\	.
4DDn/	pp	4Dn/	pp	4dn/	pp	4dn/	pp
=333	=333	=333	=333	=333	=333	=333	=333
8DDn/L	.	8Dn/L	.	8dn/L	.	8ddn/L	.
8DD/	.	8D/	.	8d/	.	8dn/	.
8DD/	.	8D/	.	8d/	.	8e/	.
8DD/J	.	8D/J	.	8d/J	.	8f#/J	.
8DD/L	.	8D/L	.	8d/L	.	8gn/L	.
8DD/	.	8D/	.	8d/	.	8a/	.
8DD/	.	8D/	.	8d/	.	8b/	.
8DD/J	.	8D/J	.	8d/J	.	8cc#/J	.
=334	=334	=334	=334	=334	=334	=334	=334
8DDn/L	.	8Dn/L	.	8dn/L	.	8ddn\L	.
8DD/	.	8D/	.	8d/	.	8ee\	.
8DD/	.	8D/	.	8d/	.	8ff#\	.
8DD/J	.	8D/J	.	8d/J	.	8ggn\J	.
8DD/L	.	8D/L	.	8d/L	.	8aa\L	.
8DD/	.	8D/	.	8d/	.	8bb\	.
8DD/	.	8D/	.	8d/	.	8ccc#\	.
8DD/J	.	8D/J	.	8d/J	.	8dddn\J	.
=335	=335	=335	=335	=335	=335	=335	=335
4DDn'/	.	4Dn'/	.	4dn'/	.	4dddn'\	.
4BBB#'/	.	4BB#'/	.	4B#'/	.	4bb#'\	.
4CC#'/	.	4C#'/	.	4c#'/	.	4ccc#'\	.
4GG#'/	.	4G#'/	.	4B#'/	.	4ddd#'\	.
=336	=336	=336	=336	=336	=336	=336	=336
4C#'/	f	4G#'/	f	4c#'/	f	4eee'\	f
4GG#'/	.	4G#'/	.	4c#'/	.	4ggg#'\	.
4CC#'/	.	4C#'/	.	(8c#/L	.	4cccc#'\	.
.	.	.	.	8d#/	.	.	.
4C#/	.	4G#/	.	8e/	.	4cc#'\	.
.	.	.	.	8d#/J)	.	.	.
=337	=337	=337	=337	=337	=337	=337	=337
4C#/	ff	4G#/	ff	(8e/L	ff	4cc#\	ff
.	.	.	.	8f#/	.	.	.
4r	.	4r	.	8e/	.	8r	.
.	.	.	.	8d#/J	.	8g#/	.
4r	.	4r	.	8e/L	.	4ee\	.
.	.	.	.	8c#/	.	.	.
8r	.	8r	.	8d#/	.	8r	.
8C#/	.	8G#/	.	8c#/J)	.	8ee\	.
=338	=338	=338	=338	=338	=338	=338	=338
4BB#/	.	4G#/	.	(8f#/L	.	4dd#\	.
.	.	.	.	8g#/	.	.	.
4r	.	4r	.	8f#/	.	8r	.
.	.	.	.	8e/J	.	8g#/	.
4r	.	4r	.	8f#/L	.	4gg#\	.
.	.	.	.	8d#/	.	.	.
8r	.	8r	.	8e/	.	8r	.
8BB#/	.	8G#/	.	8d#/J)	.	8gg#\	.
=339	=339	=339	=339	=339	=339	=339	=339
4C#/	.	4G#/	.	(8e/L	.	4gg#\	.
.	.	.	.	8f#/	.	.	.
4r	.	4r	.	8e/	.	8r	.
.	.	.	.	8f#/J	.	8ee\	.
4r	.	4r	.	8e/L	.	4ccc#\	.
.	.	.	.	8d#/	.	.	.
8r	.	8r	.	8e/	.	8r	.
8C#/	.	8G#/	.	8c#/J)	.	8ccc#\	.
=340	=340	=340	=340	=340	=340	=340	=340
4GG#/	.	4G#/	.	(8f#/L	.	4bb#\	.
.	.	.	.	8g#/	.	.	.
4r	.	4r	.	8f#/	.	8r	.
.	.	.	.	8e/J	.	8bb#\	.
4r	.	4r	.	8f#/L	.	4bb#\	.
.	.	.	.	8e/	.	.	.
8r	.	8r	.	8f#/	.	8r	.
8GG#/	.	8G#/	.	8d#/J)	.	8ddd#\	.
=341	=341	=341	=341	=341	=341	=341	=341
4C#/	.	(8e\L	.	(8ee\L	.	4ccc#\	.
.	.	8f#\	.	8ff#\	.	.	.
8r	.	8e\	.	8ee\	.	8r	.
8C#/	.	8d#\J	.	8dd#\J	.	8g#/	.
4C#/	.	8e\L	.	8ee\L	.	4ee\	.
.	.	8c#\	.	8cc#\	.	.	.
8r	.	8d#\	.	8dd#\	.	8r	.
8C#/	.	8c#\J)	.	8cc#\J)	.	8ee\	.
=342	=342	=342	=342	=342	=342	=342	=342
4BB#/	f	(8f#\L	f	(8ff#\L	f	4dd#\	f
.	.	8g#\	.	8gg#\	.	.	.
8r	.	8f#\	.	8ff#\	.	8r	.
8BB#/	.	8e\J	.	8ee\J	.	8g#/	.
4BB#/	.	8f#\L	.	8ff#\L	.	4gg#\	.
.	.	8d#\	.	8dd#\	.	.	.
8r	.	8e\	.	8ee\	.	8r	.
8BB#/	.	8d#\J)	.	8dd#\J)	.	8gg#\	.
=343	=343	=343	=343	=343	=343	=343	=343
4C#/	f	(8e\L	f	(8ee\L	f	4gg#\	f
.	.	8f#\	.	8ff#\	.	.	.
8r	.	8e\	.	8ee\	.	8r	.
8C#/	.	8f#\J	.	8ff#\J	.	8ee\	.
4C#/	.	8e\L	.	8ee\L	.	4ccc#\	.
.	.	8d#\	.	8dd#\	.	.	.
8r	.	8e\	.	8ee\	.	8r	.
8C#/	.	8e\J)	.	8cc#\J)	.	8ccc#\	.
=344	=344	=344	=344	=344	=344	=344	=344
4GG#/	f	(8f#\L	f	(8ff#\L	f	4bb#\	f
.	.	8g#\	.	8gg#\	.	.	.
8r	.	8f#\	.	8ff#\	.	8r	.
8GG#/	.	8e\J	.	8ee\J	.	8bb#\	.
4GG#/	.	8f#\L	.	8ff#\L	.	4bb#\	.
.	.	8e\	.	8ee\	.	.	.
8r	.	8f#\)	.	8ff#\	.	8r	.
8GG#/	.	8f#\J	.	8dd#\J)	.	8ddd#\	.
=345	=345	=345	=345	=345	=345	=345	=345
4C#/	f	(8e\L	f	(8ee\L	f	4ccc#\	f
.	.	8f#\	.	8dd#\	.	.	.
8r	.	8e\)	.	8ee\	.	8r	.
8C#/	.	8e\J	.	8cc#\J	.	8ccc#\	.
4GG#/	.	(8f#\L	.	8ff#\L	.	4bb#\	.
.	.	8g#\	.	8ee\	.	.	.
8r	.	8f#\)	.	8ff#\	.	8r	.
8GG#/	.	8f#\J	.	8dd#\J)	.	8ddd#\	.
=346	=346	=346	=346	=346	=346	=346	=346
4C#/	.	(8e\L	.	(8ee\L	.	4ccc#\	.
.	.	8f#\	f	8dd#\	f	.	.
8r	f	8e\)	.	8ee\	.	8r	f
8C#/	.	8e\J	.	8cc#\J	.	8ccc#\	.
4GG#/	.	(8f#\L	.	8ff#\L	.	4bb#\	.
.	.	8g#\	.	8ee\	.	.	.
8r	.	8f#\)	.	8ff#\	.	8r	.
8GG#/	.	8f#\J	.	8dd#\J)	.	8ddd#\	.
=347	=347	=347	=347	=347	=347	=347	=347
4GG#'/	.	4f#'\	.	4dd#'\	.	4ddd#'\	.
(8BBB#/L	p	(8BB#/L	p	(8B#/L	p	(8B#/L	p
8DD#/J	.	8D#/J	.	8d#/J	.	8d#/J	.
4FF#'/)	.	4F#'/)	.	4f#'/)	.	4f#'/)	.
(8AA/L	.	(8A/L	.	(8a/L	.	(8a/L	.
8BBB#/J)	.	8BB#/J)	.	8B#/J)	.	8B#/J)	.
=348	=348	=348	=348	=348	=348	=348	=348
1r	.	1r	.	1r	.	1r	.
=349	=349	=349	=349	=349	=349	=349	=349
4r	.	4r	.	4r	.	4r	.
(8CC#/L	p	(8C#/L	p	(8c#/L	p	(8c#/L	p
8EE/J	.	8E/J	.	8e/J	.	8e/J	.
4GG#'/)	.	4G#'/)	.	4g#'/)	.	4g#'/)	.
(8C#/L	.	(4c#\	.	(8cc#/L	.	(4cc#\	.
8CC#/J)	.	.	.	8c#/J)	.	.	.
=350	=350	=350	=350	=350	=350	=350	=350
4r	.	2B#/	.	2r	.	2b#\	.
(8CC#/L	.	.	.	.	.	.	.
8FF#/J	.	.	.	.	.	.	.
4AA/)	.	2A/	.	4r	.	2a/	.
4r	.	.	.	(8cc#/L	.	.	.
.	.	.	.	8c#/J)	.	.	.
=351	=351	=351	=351	=351	=351	=351	=351
4r	.	2.G#/)	.	2r	.	2.g#/)	.
(8CC#/L	.	.	.	.	.	.	.
8EE#/J	.	.	.	.	.	.	.
4GG#/)	.	.	.	4r	.	.	.
4r	.	(4Bn/	.	(8cc#/L	.	(4bn\	.
.	.	.	.	8c#/J)	.	.	.
=352	=352	=352	=352	=352	=352	=352	=352
4r	.	2A#/	.	2r	.	2a#/	.
(8CC#/L	.	.	.	.	.	.	.
8FF#/J	.	.	.	.	.	.	.
4AA#/)	.	2Gn/	.	4r	.	2gn/	.
4r	.	.	.	(8cc#/L	.	.	.
.	.	.	.	8c#/J)	.	.	.
=353	=353	=353	=353	=353	=353	=353	=353
4r	.	2.F#/)	.	2r	.	2.f#/)	.
(8CC#/L	.	.	.	.	.	.	.
8FF#/J	.	.	.	.	.	.	.
4AAn/)	.	.	.	4r	.	.	.
4r	.	(4an\	.	(8cc#/L	.	(4aan\	.
.	.	.	.	8c#/J)	.	.	.
=354	=354	=354	=354	=354	=354	=354	=354
4r	.	2g#\	.	2r	.	2gg#\	.
(8CC#/L	.	.	.	.	.	.	.
8EE#/J	.	.	.	.	.	.	.
4GG#/)	.	2f#\	.	4r	.	2ff#\	.
4r	.	.	.	(8cc#/L	.	.	.
.	.	.	.	8c#/J)	.	.	.
=355	=355	=355	=355	=355	=355	=355	=355
4r	.	2e#\	.	2r	.	2ee#\	.
(8CC#/L	.	.	.	.	.	.	.
8EE#/J	.	.	.	.	.	.	.
4GG#/)	.	2dn\	.	4r	.	2ddn\	.
4r	.	.	.	(8cc#/L	.	.	.
.	.	.	.	8c#/J)	.	.	.
=356	=356	=356	=356	=356	=356	=356	=356
4r	.	2c#\	.	2r	.	2cc#\	.
(8CC#/L	.	.	.	.	.	.	.
8EE#/J	.	.	.	.	.	.	.
4GG#/)	.	2B/	.	4r	.	2b\	.
4r	.	.	.	(8cc#/L	.	.	.
.	.	.	.	8c#/J)	.	.	.
=357	=357	=357	=357	=357	=357	=357	=357
4r	.	2A/	.	2r	.	2a/	.
(8CC#/L	.	.	.	.	.	.	.
8FF#/J	.	.	.	.	.	.	.
4AA/)	.	2G#/	.	4r	.	2g#/	.
4r	.	.	.	(8cc#/L	.	.	.
.	.	.	.	8c#/J)	.	.	.
=358	=358	=358	=358	=358	=358	=358	=358
4r	.	2.F#/)	.	2r	.	2.f#/)	.
(8CC#/L	.	.	.	.	.	.	.
8FF#/J	.	.	.	.	.	.	.
4AA/)	.	.	.	4r	.	.	.
4r	.	(4a\	.	(8cc#/L	.	(4aa\	.
.	.	.	.	8c#/J)	.	.	.
=359	=359	=359	=359	=359	=359	=359	=359
4r	.	2g#\	.	2r	.	2gg#\	.
(8CC#/L	.	.	.	.	.	.	.
8EE#/J	.	.	.	.	.	.	.
4GG#/)	.	2f#\	.	4r	.	2ff#\	.
4r	.	.	.	(8cc#/L	.	.	.
.	.	.	.	8c#/J)	.	.	.
=360	=360	=360	=360	=360	=360	=360	=360
4r	.	2fn\	.	2r	.	2ee#\	.
(8CC#/L	.	.	.	.	.	.	.
8EE#/J	.	.	.	.	.	.	.
4GG#/)	.	2dn\	.	4r	.	2ddn\	.
4r	.	.	.	(8cc#/L	.	.	.
.	.	.	.	8c#/J)	.	.	.
=361	=361	=361	=361	=361	=361	=361	=361
4r	.	2c#\	.	2r	.	2cc#\	.
(8CC#/L	.	.	.	.	.	.	.
8FF#/J	.	.	.	.	.	.	.
4AA/)	.	2B/)	.	4r	.	2b\)	.
4r	.	.	.	(8cc#/L	.	.	.
.	.	.	.	8c#/J)	.	.	.
=362	=362	=362	=362	=362	=362	=362	=362
4r	.	2F#/ 2A/	.	2r	.	2a/	.
(8DDn/L	.	.	.	.	.	.	.
8FF#/J	.	.	.	.	.	.	.
4AA/)	.	2F#/ 2A/	.	4r	.	2a/	.
4r	.	.	.	(8ddn/L	.	.	.
.	.	.	.	8dn/J)	.	.	.
=363	=363	=363	=363	=363	=363	=363	=363
4r	.	[1F# [1A	.	[1B# [1d#	.	[1f# [1a	.
(8BBB#/L	.	.	.	.	.	.	.
8DD#/J	.	.	.	.	.	.	.
4FF#'/)	.	.	.	.	.	.	.
(8AA/L	.	.	.	.	.	.	.
8BBB#/J)	.	.	.	.	.	.	.
=364	=364	=364	=364	=364	=364	=364	=364
1r	.	1F#] 1A]	.	1B#] 1d#]	.	1f#] 1a]	.
=365	=365	=365	=365	=365	=365	=365	=365
4r	.	[1F# [1A	.	[1B# [1d#	.	[1f# [1a	.
(8BBB#/L	.	.	.	.	.	.	.
8DD#/J	.	.	.	.	.	.	.
4FF#'/)	.	.	.	.	.	.	.
(8AA/L	.	.	.	.	.	.	.
8BBB#/J)	.	.	.	.	.	.	.
=366	=366	=366	=366	=366	=366	=366	=366
1r	.	1F#] 1A]	.	1B#] 1d#]	.	1f#] 1a]	.
=367	=367	=367	=367	=367	=367	=367	=367
4r	.	(2E#/	pp	(4dn/	pp	(2g#/	.
(8BB/L	pp	.	.	(4c#/)	.	.	.
8C#/J	.	.	.	.	.	.	.
4AA/)	.	4F#/)	.	4c#/)	.	4f#/)	pp
8r	.	4r	.	8r	.	8r	.
8GG#/	.	.	.	8fn/	.	8g#/	.
=368	=368	=368	=368	=368	=368	=368	=368
4FF#/	.	4A/	.	4f#/	.	4a/	.
*clefC4	*clefC4	*	*	*	*	*	*
8r	.	8r	.	8r	.	8r	.
8c#\	.	8G#/	.	8B/	.	8b\	.
4c#\	.	4F#/	.	4A/	.	4cc#\	.
8r	.	8r	.	8r	.	8r	.
8c#\	.	8Fn/	.	8G#/	.	8ddn\	.
=369	=369	=369	=369	=369	=369	=369	=369
1c#	.	4F#/	.	4A/	.	4cc#\	.
.	.	4r	.	4r	.	4r	.
.	.	4c#\	.	2r	.	2r	.
.	.	8r	.	.	.	.	.
.	.	8B/	.	.	.	.	.
=370	=370	=370	=370	=370	=370	=370	=370
1f#	.	4A/	.	1r	.	1r	.
.	.	8r	.	.	.	.	.
.	.	8G#/	.	.	.	.	.
.	.	4A/	.	.	.	.	.
.	.	8r	.	.	.	.	.
.	.	8F#/	.	.	.	.	.
=371	=371	=371	=371	=371	=371	=371	=371
4fn\	.	1C#	.	2r	.	1r	.
*clefF4	*clefF4	*	*	*	*	*	*
(8CC#/L	.	.	.	.	.	.	.
8EE#/J	.	.	.	.	.	.	.
4GG#'/)	.	.	.	4cc#\	.	.	.
(8CC#/L	.	.	.	8r	.	.	.
8FF#/J	.	.	.	8b\	.	.	.
=372	=372	=372	=372	=372	=372	=372	=372
4AA'/)	.	1F#	.	4a/	.	4r	.
4r	.	.	.	8r	.	(8f#/L	.
.	.	.	.	8g#/	.	8b/J	.
2r	.	.	.	4a/	.	4cc#'\)	.
.	.	.	.	8r	.	(8c#/L	.
.	.	.	.	8f#/	.	8a/J	.
=373	=373	=373	=373	=373	=373	=373	=373
4r	.	4Fn/	.	1cc#	.	4g#'/)	.
(8CC#/L	.	4r	.	.	.	4r	.
8FFn/J	.	.	.	.	.	.	.
4GG#'/)	.	2r	.	.	.	4ccc#\	.
(8CC#/L	.	.	.	.	.	8r	.
8FF#/J	.	.	.	.	.	8bb\	.
=374	=374	=374	=374	=374	=374	=374	=374
4AA'/)	.	4r	.	1ff#	.	4aa\	.
4r	.	(8F#/L	.	.	.	8r	.
.	.	8B/J	.	.	.	8gg#\	.
2r	.	4c#'\)	.	.	.	4aa\	.
.	.	(8F#/L	.	.	.	8r	.
.	.	8A/J	.	.	.	8ff#\	.
=375	=375	=375	=375	=375	=375	=375	=375
2r	.	4G#'/)	.	4ee#\	.	1cc#	.
.	.	4r	.	(8c#/L	.	.	.
.	.	.	.	8e#/J	.	.	.
4C#/	.	4r	.	4g#'/)	.	.	.
8r	.	(8C#/L	.	4r	.	.	.
8BB/	.	8F#/J	.	.	.	.	.
=376	=376	=376	=376	=376	=376	=376	=376
4AA/	.	4A'/)	.	4r	.	1ff#	.
8r	.	4r	.	(8f#/L	.	.	.
8GG#/	.	.	.	8b/J	.	.	.
4AA/	.	4r	.	4cc#'\)	.	.	.
8r	.	(8C#/L	.	4r	.	.	.
8FF#/	.	8A/J	.	.	.	.	.
=377	=377	=377	=377	=377	=377	=377	=377
(1CC#	.	4G#'/)	.	2r	.	4ee#\	.
.	.	(8C#/L	.	.	.	4r	.
.	.	8E#/J	.	.	.	.	.
.	.	4G#'/)	.	4r	.	4ccc#\	.
.	.	4r	.	(8c#/L	.	8r	.
.	.	.	.	8f#/J	.	8bb\	.
=378	=378	=378	=378	=378	=378	=378	=378
1FF#	.	4r	.	4a'/)	.	4aa\	.
.	.	(8F#/L	.	4r	.	8r	.
.	.	8B/J	.	.	.	8gg#\	.
.	.	4c#'\)	.	4r	.	4aa\	.
.	.	4r	.	(8c#/L	.	8r	.
.	.	.	.	8a/J	.	8ff#\	.
=379	=379	=379	=379	=379	=379	=379	=379
4EE#/)	.	1c#	.	4g#'/)	.	4gg#\	.
(8CC#/L	.	.	.	4r	.	4r	.
8EE#/J	.	.	.	.	.	.	.
4GG#'/)	.	.	.	4cc#\	.	2r	.
(8CC#/L	.	.	.	8r	.	.	.
8FF#/J	.	.	.	8b\	.	.	.
=380	=380	=380	=380	=380	=380	=380	=380
4AA'/)	.	1f#	.	4a/	.	4r	.
4r	.	.	.	8r	.	(8f#/L	.
.	.	.	.	8g#/	.	8b/J	.
2r	.	.	.	4a/	.	4cc#'\)	.
.	.	.	.	8r	.	(8f#/L	.
.	.	.	.	8f#/	.	8a/J	.
=381	=381	=381	=381	=381	=381	=381	=381
(1CC#	.	4e#\	.	4g#/	.	4cc#'\)	.
.	.	4r	.	(8c#/L	.	4r	.
.	.	.	.	8e#/J	.	.	.
.	.	4r	.	4g#'/)	.	4ccc#\	.
.	.	(8C#/L	.	4r	.	8r	.
.	.	8G#/J	.	.	.	8bb\	.
=382	=382	=382	=382	=382	=382	=382	=382
1FF#)	.	4A'/)	.	4r	.	4aa\	.
.	.	4r	.	(8f#/L	.	8r	.
.	.	.	.	8b/J	.	8gg#\	.
.	.	4r	.	4cc#'\)	.	4aa\	.
.	.	(8C#/L	.	4r	.	8r	.
.	.	8A/J)	.	.	.	8ff#\	.
=383	=383	=383	=383	=383	=383	=383	=383
4CC#'/	.	[1C# [1G#	.	1r	.	[1cc# [1gg#	.
8r	.	.	.	.	.	.	.
8BB#'/	.	.	.	.	.	.	.
4C#'/	.	.	.	.	.	.	.
8r	.	.	.	.	.	.	.
8D#'\	.	.	.	.	.	.	.
=384	=384	=384	=384	=384	=384	=384	=384
4E#'\	.	1C#_ 1G#_	.	1r	.	1cc#_ 1gg#_	.
8r	.	.	.	.	.	.	.
8F#'\	.	.	.	.	.	.	.
4G#'\	.	.	.	.	.	.	.
8r	.	.	.	.	.	.	.
8B#'\	.	.	.	.	.	.	.
=385	=385	=385	=385	=385	=385	=385	=385
4c#'\	.	1C#_ 1G#_	.	4e#'/	.	1cc#_ 1gg#_	.
4r	.	.	.	8r	.	.	.
.	.	.	.	8f#'/	.	.	.
2r	.	.	.	4g#'/	.	.	.
.	.	.	.	8r	.	.	.
.	.	.	.	8b#'\	.	.	.
=386	=386	=386	=386	=386	=386	=386	=386
4r	.	4C#/] 4G#/]	.	4cc#'\	.	4cc#\] 4gg#\]	.
8r	.	8r	.	8r	.	8r	.
8CC#/	ff	8c#\	ff	8cc#\	ff	8ccc#\	ff
4EE#/	.	4e#\	.	4ee#\	.	4eee#\	.
8r	.	8r	.	8r	.	8r	.
8GG#/	.	8g#\	.	8gg#\	.	8ggg#\	.
=387	=387	=387	=387	=387	=387	=387	=387
4C#/	.	4cc#\	.	4ccc#\	.	4cccc#\	.
4r	.	4r	.	4r	.	4r	.
4CC#'/	.	4C#'\ 4G#'\ 4e#'\ 4cc#'\	.	4G#'/ 4e#'/ 4cc#'/	.	4c#'\ 4g#'\ 4ee#'\ 4ccc#'\	.
4CC#'/	.	4C#'\ 4G#'\ 4e#'\ 4cc#'\	.	4G#'/ 4e#'/ 4cc#'/	.	4c#'\ 4g#'\ 4ee#'\ 4ccc#'\	.
=388	=388	=388	=388	=388	=388	=388	=388
4CC#/	.	4C#\ 4G#\ 4e#\ 4cc#\	.	4G#/ 4e#/ 4cc#/	.	4c#\ 4g#\ 4ee#\ 4ccc#\	.
4r	.	4r	.	4r	.	4r	.
2r;	.	2r;	.	2r;	.	2r;	.
==	==	==	==	==	==	==	==
*-	*-	*-	*-	*-	*-	*-	*-
!!!ENC: Craig Stuart Sapp
!!!END: 2004/09/09/
